!!!!SEGMENT: pl-wtm--1126-3624_rozycki-ludomir--im-spiel-der-wellen.krn
!!!cenid: 19xx:143
!!!COM: Różycki, Ludomir
!!!COM-rismID: pe50045573
!!!CDT: 1883-1953
!!!CNT: Polish
!!!OTL: Im Spiel der Wellen
!!!PDT: 1924
!!!AGN:
!!!YEC: Copyright 2022 Narodowy Instytut Fryderyka Chopina (https://polishscores.org)
!!!YEM: License CC-BY-4.0 (https://creativecommons.org/licenses/by/4.0)
!!!SMS-siglum: PL-Wtm
!!!SMS-shelfmark: 1126 3624
!!!SMS-variant:
!!!SMS-altvar:
!!!SMS-shelfwork: W
!!!NIFC-rismSourceID: 1001211933
!!!NIFC-rismChildID: 1001211933
!!!NIFC-islandoraID: pl-wtm:82100
!!!URL-pdf-islandora: https://repozytorium.nifc.pl/islandora/object/pl-wtm%3A82100/datastream/PDF/view
!!!URL-scan: https://polish.musicsources.pl/pl/lokalizacje/galeria/druki-muzyczne/18459/3 @EN{Scan on Polish Music Sources Website} @PL{Skany w portalu Dziedzictwo Muzyki Polskiej w otwartym dostępie}
!!!IIIF:
!!!ONB-nifc:
!!!AIN: 1 piano
!!!key: B
**kern	**fing	**kern	**fing	**dynam
*part1	*	*part1	*	*part1
*staff2	*	*staff1	*	*staff1/2
*group1	*	*group1	*	*
*ICklav	*	*ICklav	*	*
*Ipiano	*	*Ipiano	*	*
*I"PIANO.	*	*I"PIANO.	*	*
*	*	*I'	*	*
*clefF4	*	*clefG2	*	*
*kcancel	*	*kcancel	*	*
*k[f#c#g#d#a#]	*	*k[f#c#g#d#a#]	*	*
*B:	*	*B:	*	*
*M4/4	*	*M4/4	*	*
*met(c)	*	*met(c)	*	*
=1	=1	=1	=1	=1
*Xtuplet	*below	*	*	*
!!LO:TX:a:B:t=Appassionato. M.M. [quarter] = 108.
!LO:TX:b:i:t=con [Ped]	!	!	!	!LO:DY:rj
(24BBB/LL	5	1r	.	p <
24FF#/	3	.	.	.
24GG#/	2	.	.	.
24D#/	1	.	.	.
24F#/	3	.	.	.
24G#/JJ	.	.	.	[
*	*above	*	*	*
24d#\LL	1	.	.	.
24G#\	2	.	.	>
24F#\	3	.	.	.
24D#\	1	.	.	.
24GG#\	2	.	.	.
24FF#\JJ)	3	.	.	]
(24BBB/LL	.	.	.	<
24FF#/	.	.	.	.
24GG#/	.	.	.	.
24D#/	.	.	.	.
24F#/	.	.	.	.
24G#/JJ	.	.	.	[
.	.	.	.	.
24d#\LL	.	.	.	>
24G#\	.	.	.	.
24F#\	.	.	.	.
24D#\	.	.	.	.
24GG#\	.	.	.	.
24FF#\JJ)	.	.	.	]
!!LO:LB:g=original
=2	=2	=2	=2	=2
(24BBB/LL	.	4r	.	.
24FF#/	.	.	.	.
24GG#/	.	.	.	.
24D#/	.	.	.	.
24F#/	.	.	.	.
24G#/JJ	.	.	.	.
!	!	!	!	!LO:DY:a:rj
24d#\LL	.	(4b^\	3	mf
24G#\	.	.	.	.
24F#\	.	.	.	.
24D#\	.	.	.	.
24GG#\	.	.	.	.
24FF#\JJ)	.	.	.	.
*	*	*Xtuplet	*	*
(24BBB/LL	.	12cc#\L)	.	.
24FF#/	.	.	.	.
24GG#/	.	12dd#'\	.	.
24D#/	.	.	.	.
24F#/	.	12b'\J	.	>
24G#/JJ	.	.	.	.
24d#\LL	.	8d#'/L	1	]<
24G#\	.	.	.	.
24F#\	.	.	.	.
24D#\	.	8f#'/J	.	.
24GG#\	.	.	.	[
24FF#\JJ)	.	.	.	.
=3	=3	=3	=3	=3
(24BBB/LL	.	(4.g#/	3	>
24FF#/	.	.	.	.
24GG#/	.	.	.	.
24D#/	.	.	.	.
24F#/	.	.	.	.
24G#/JJ	.	.	.	.
24d#\LL	.	.	.	.
24G#\	.	.	.	.
24F#\	.	.	.	.
24D#\	.	8a#/)	4	]
24GG#\	.	.	.	.
24FF#\JJ)	.	.	.	.
(24BBB/LL	.	8r	.	.
24FF#/	.	.	.	.
24GG#/	.	.	.	.
24D#/	.	(8b\	1	.
24F#/	.	.	.	.
24G#/JJ	.	.	.	.
24d#\LL	.	12cc#\L	.	<
24G#\	.	.	.	.
24F#\	.	12dd#\	.	.
24D#\	.	.	.	.
!	!	!LO:TX:t=P:problem:łuk do następnego taktu	!	!
24GG#\	.	12ff#\J)	4	[[
24FF#\JJ)	.	.	.	.
!!LO:LB:g=original
=4	=4	=4	=4	=4
*	*below	*	*	*
(24BBB/LL	5	(8aa#\L	3	f >
24FF#/	3	.	.	.
24GGn/	2	.	.	.
24Dn/	1	8ee#X\J)	.	]
24F#/	3	.	.	.
24Gn/JJ	.	.	.	.
24dn\LL	.	4r	.	.
24G\	.	.	.	.
*	*above	*	*	*
24F#\	3	.	.	.
24D\	1	.	.	.
24GG\	.	.	.	.
24FF#\JJ)	.	.	.	.
(24BBB/LL	.	(8a#/L	3	>
24FF#/	.	.	.	.
24GG/	.	.	.	.
24D/	.	8e#X/J)	.	]
24F#/	.	.	.	.
24G/JJ	.	.	.	.
24d\LL	.	4r	.	.
24G\	.	.	.	.
24F#\	.	.	.	.
24D\	.	.	.	.
24GG\	.	.	.	.
24FF#\JJ)	.	.	.	.
*	*	*clefF4	*	*
=5	=5	=5	=5	=5
(24BBB/LL	.	4A#^\	4	f
!	!	!LO:TX:a:i:t=sopra	!	!
24FF#/	.	.	.	.
24GGn/	.	.	.	.
24Dn/	.	.	.	.
24F#/	.	.	.	.
24Gn/JJ	.	.	.	.
24dn\LL	.	4E#X^\	2	.
24G\	.	.	.	.
24F#\	.	.	.	.
24D\	.	.	.	.
24GG\	.	.	.	.
24FF#\JJ)	.	.	.	.
!	!	!LO:TR:acc=#	!	!
(24BBB/LL	.	2C#TT/	23	.
24FF#/	.	.	.	.
24GGn/	.	.	.	.
24Dn/	.	.	.	.
24F#/	.	.	.	.
24Gn/JJ	.	.	.	.
24dn\LL	.	.	.	.
24G\	.	.	.	.
24F#\	.	.	.	.
24D\	.	.	.	.
24GG\	.	.	.	.
24FF#\JJ)	.	.	.	.
*	*	*clefG2	*	*
!!LO:LB:g=original
=6	=6	=6	=6	=6
*	*below	*	*	*
(24BBB/LL	5	4r	.	.
24FF#/	3	.	.	.
24GG#X/	.	.	.	.
24D#X/	1	.	.	.
24F#/	3	.	.	.
24G#X/JJ	.	.	.	.
24d#X\LL	.	(4b^\	3	.
24G#\	.	.	.	.
24F#\	.	.	.	.
*	*above	*	*	*
24D#\	1	.	.	.
24GG#\	.	.	.	.
24FF#\JJ)	.	.	.	.
(24BBB/LL	.	12cc#'\L)	.	.
24FF#/	.	.	.	.
24GG#/	.	12dd#'\	.	>
24D#/	.	.	.	.
24F#/	.	12b'\J	.	.
24G#/JJ	.	.	.	]
24d#\LL	.	8d#'/L	1	.
24G#\	.	.	.	<
24F#\	.	.	.	.
24D#\	.	8f#'/J	.	[[
24GG#\	.	.	.	.
24FF#\JJ)	.	.	.	.
=7	=7	=7	=7	=7
(24BBB/LL	.	(4.g#/	3	>
24FF#/	.	.	.	.
24GG#/	.	.	.	]]
24D#/	.	.	.	.
24F#/	.	.	.	.
24G#/JJ	.	.	.	.
24d#\LL	.	.	.	.
24G#\	.	.	.	.
24F#\	.	.	.	.
24D#\	.	8a#/)	4	.
24GG#\	.	.	.	.
24FF#\JJ)	.	.	.	.
(24BBB/LL	.	8r	.	.
24FF#/	.	.	.	.
24GG#/	.	.	.	.
24D#/	.	(8b\	1	<
24F#/	.	.	.	.
24G#/JJ	.	.	.	.
24d#\LL	.	12cc#\L	.	.
24G#\	.	.	.	.
24F#\	.	12dd#\	.	.
24D#\	.	.	.	.
24GG#\	.	12ff#\J)	5	[
24FF#\JJ)	.	.	.	.
!!LO:LB:g=original
=8	=8	=8	=8	=8
*	*	*	*	*^
!	!	!	!	!LO:DY:b	!LO:DY:b=2:rj
(24FF#\LL	5	(4.aan\	4	ff	f
24C#\	3	.	.	.	.
24D#\	2	.	.	.	.
24E#X\	1	.	.	.	.
24F#\	2	.	.	.	.
24An\JJ)	1	.	.	.	.
(24FF#\LL	.	.	.	.	.
24C#\	.	.	.	.	.
24D#\	.	.	.	.	.
24E#\	.	40gg#\LLL	.	.	.
.	.	40aa\	.	.	.
24F#\	.	.	.	.	.
.	.	40gg#\	.	.	.
.	.	40ff#\	.	.	.
24A\JJ)	.	.	.	.	.
.	.	40cc#\JJJ)	.	.	.
(24FF#\LL	.	8ccc#\	.	.	.
24C#\	.	.	.	.	.
24D#\	.	.	.	.	.
24E#\	.	8r	.	.	.
24F#\	.	.	.	.	.
24A\JJ)	.	.	.	.	.
!	!	!	!	!LO:DY:b	!
(24FF#\LL	.	8ddd#: 8ff#: 8b#X:\	.	sfz	.
24C#\	.	.	.	.	.
24D#\	.	.	.	.	.
24E#\	.	8r	.	.	.
24F#\	.	.	.	.	.
24A\JJ)	.	.	.	.	.
*	*	*	*	*v	*v
=9	=9	=9	=9	=9
(24FF#\LL	.	(4.an/	4	.
24C#\	.	.	.	.
24D#\	.	.	.	.
24E#X\	.	.	.	.
24F#\	.	.	.	>
24An\JJ)	.	.	.	.
(24FF#\LL	.	.	.	.
24C#\	.	.	.	.
24D#\	.	.	.	.
24E#\	.	40g#/LLL	.	.
.	.	40a/	.	.
24F#\	.	.	.	.
.	.	40g#/	.	.
.	.	40f#/	.	.
24A\JJ)	.	.	.	.
.	.	40c#/JJJ)	.	.
(24FF#\LL	.	8cc#\	.	.
24C#\	.	.	.	.
24D#\	.	.	.	.
24E#\	.	8r	.	.
24F#\	.	.	.	.
24A\JJ)	.	.	.	.
(24FF#\LL	.	8dd#: 8f#: 8B#X^^:/	.	.
24C#\	.	.	.	.
24D#\	.	.	.	.
24E#\	.	8r	.	.
24F#\	.	.	.	.
24A\JJ)	.	.	.	.
!!LO:PB:g=original
=10	=10	=10	=10	=10
*tuplet	*below	*	*	*
(28CC#/LL	5	[4ee [4cc#\	1 3	.
!	!	!	!	!LO:HP:b=2
28GG#/	3	.	.	<
28AA#/	2	.	.	.
28BB#X/	1	.	.	.
28C#/	3	.	.	.
28D#/	.	.	.	.
28E/JJ	.	.	.	.
*	*above	*tuplet	*	*
!LO:TUP:a	!	!LO:TUP:a	!	!
28F#\LL	4	(12ee]L 12cc#\]	.	.
28G#\	.	.	.	.
28A#\	.	.	.	.
.	.	12ff# 12dd#\	.	.
28B#X\	.	.	.	.
28c#\	3	.	.	.
.	.	12gg#J 12ee\)	.	.
28d#\	.	.	.	.
28e\JJ)	.	.	.	[
*Xtuplet	*	*	*	*
(24FF#\LL	5	[4cc# [4an\	1 3	.
!	!	!	!	!LO:HP:b=2
24C#\	.	.	.	<
24D#\	.	.	.	.
24An\	1	.	.	.
24c#\	3	.	.	.
24d#\JJ	.	.	.	[
*	*	*Xtuplet	*	*
!LO:SIC:v:s=24a\LL	!	!	!	!LO:HP:b=2
24a#\LL	.	(12cc#]L 12a\]	.	>
24e\	.	.	.	.
24c#\	3	12dd# 12b\	.	.
24A\	1	.	.	.
24E\	.	12eeJ 12cc#\)	.	]]
24C#\JJ)	3	.	.	.
=11	=11	=11	=11	=11
*	*	*^	*	*
*	*below	*	*	*	*
(28CC#/LL	5	[4ee/	[>4cc#^\	1 3	.
28GG#/	3	.	.	.	.
!	!	!	!	!	!LO:HP:b=2
28AA#/	.	.	.	.	<
28BB#X/	.	.	.	.	.
28C#/	3	.	.	.	.
28D#/	.	.	.	.	.
28E/JJ	.	.	.	.	.
*	*above	*	*	*below	*
28F#\LL	4	(12ee]L 12cc#/]	4b^\	1	.
28G#\	.	.	.	.	.
28A#\	.	.	.	.	.
.	.	12ff# 12dd#/	.	.	.
28B#X\	.	.	.	.	.
28c#\	3	.	.	.	.
.	.	12gg#J 12ee/)	.	.	.
28d#\	.	.	.	.	[
28e\JJ)	.	.	.	.	.
*	*	*	*	*above	*
(24FF#\LL	5	[4cc#/	[>4an^\	1 3	.
24C#\	3	.	.	.	.
24D#\	.	.	.	.	.
24An\	1	.	.	.	.
24c#\	3	.	.	.	.
24d#\JJ	.	.	.	.	.
*	*	*	*	*below	*
24an\LL	.	(12cc#]L 12a/]	4g#^\	1	.
24e\	.	.	.	.	.
24c#\	3	12dd# 12b/	.	.	.
24An\	1	.	.	.	.
24E\	.	12eeJ 12cc#/)	.	.	.
24C#\JJ)	.	.	.	.	.
!!LO:LB:g=original
=12	=12	=12	=12	=12	=12
(8DD#L 8DDD#/	.	(4gg#^::/	4cc#:: 4f#::\	.	f
8D#J 8DD#/)	.	.	.	.	.
24r	.	8aan/)	12an^\L	.	f
*	*below	*	*	*	*
(24g#\LL	1	.	.	.	.
24c#\	2	.	12b#X^\	.	.
24An\J	3	8rccc	.	.	.
12D#\J)	5	.	12cc#^\J	.	.
(8FF#L 8FFF#/	.	(4bb#X::/	4ee:: 4a::\	.	<
8F#J 8FF#/)	.	.	.	.	.
24r	.	8ccc#/)	12cc#^\L	.	.
(24b#X\LL	1	.	.	.	.
24e\	.	.	12dd#^\	.	.
24c#\J	.	8rccc	.	.	.
12F#\J)	5	.	12ee^\J	.	.
=13	=13	=13	=13	=13	=13
(8AAnL 8AAAn/	.	(4ddd#::/	4gg#:: 4cc#::\	.	.
8AnJ 8AA/)	.	.	.	.	.
24r	.	8eee/)	12ee^\L	.	.
(24dd#\LL	1	.	.	.	.
24g#\	.	.	12ff##X^\	.	.
24e\J	.	8rccc	.	.	.
12A\J)	.	.	12gg#^\J	.	.
8AA#X 8AAA#X/	.	(4ggg# 4eee 4ccc# 4gg#\	2ryy	.	ff
8c# 8C#^\	.	.	.	.	>
!	!	!LO:N:n=2:acc=n#	!	!	!
12d#L 12D#^\	.	8fff#L 8ff#X\	.	.	.
12e 12E^\	.	.	.	.	]
.	.	8eeeJ 8ee\)	.	.	.
12c#J 12C#^\	.	.	.	.	.
=14	=14	=14	=14	=14	=14
!LO:TX:t=P:problem:mixed beam	!	!	!	!	!
12.AAnL 12.AAAn/	.	4eee 4cccn 4ff# 4ee\	4ryy	.	.
24e>K 24cn> 24An>\	.	.	.	.	.
((12G#J 12GG#/	4	.	.	.	.
*	*	*tuplet	*	*	*
!	!	!LO:TUP:a:problem:klamra łukowa	!	!	!
4F# 4FF#/))	5	12b/L	4e 4c#\	.	.
.	.	12ccn/	.	.	.
.	.	12an/J	.	.	.
8AA#X 8AAA#X/	.	(4ggg# 4eee 4ccc#X 4gg#\	2ryy	.	>
8c#X 8C#X^\	.	.	.	.	.
12d#L 12D#^\	.	8fff#L 8ff#\	.	.	.
12e 12E^\	.	.	.	.	]
.	.	8eeeJ 8ee\)	.	.	.
12c#J 12C#^\	.	.	.	.	.
!!LO:LB:g=original
=15	=15	=15	=15	=15	=15
!LO:TX:t=P:problem:mixed beam	!	!	!	!	!
12.AAnL 12.AAAn/	.	4eee 4cccn 4ff# 4ee\	4ryy	.	.
24e>K 24cn> 24An>\	.	.	.	.	.
((12G#J 12GG#/	.	.	.	.	.
!	!	!LO:TUP:a:problem:klamra łukowa	!	!	!
4F# 4FF#/))	.	12b^/L	4e 4c#\	.	.
.	.	12ccn^/	.	.	.
.	.	12an^/J	.	.	.
8AA#X 8AAA#X/	.	(4ggg# 4eee 4ccc#X 4gg#\	2ryy	.	>
8c#X 8C#X^\	.	.	.	.	.
12d#L 12D#^\	.	8fff#L 8ff#\	.	.	.
12e 12E^\	.	.	.	.	.
.	.	8eeeJ 8ee\)	.	.	]
12c#J 12C#^\	.	.	.	.	.
*	*	*v	*v	*	*
=16	=16	=16	=16	=16
*ped	*	*8va	*	*
8BBL 8BBB\	.	(4bbb 4ggg# 4eee 4bb\	.	>
8eJ 8E^\	.	.	.	.
12f#L 12F#^\	.	8aaanL 8aan\	.	.
12g# 12G#^\	.	.	.	.
.	.	8ggg#J 8gg#\)	.	]
*Xped	*	*	*	*
12eJ 12E^\	.	.	.	.
*ped	*	*	*	*
8CnL 8CCn\	.	(4gggn 4cccn 4bb-X 4ggn\	.	>
8gnJ 8Gn^\	.	.	.	.
12anL 12An^\	.	8fff#XL 8ff#X/	.	.
12b-X 12B-X^\	.	.	.	.
.	.	8eeeJ 8ee/)	.	]
*Xped	*	*	*	*
12gJ 12G^\	.	.	.	.
=17	=17	=17	=17	=17
*ped	*	*	*	*
8CnL 8CCn\	.	(4gggn 4cccn 4bb-X 4ggn\	.	>
8gnJ 8Gn^\	.	.	.	.
12anL 12An^\	.	8fff#L 8ff#/	.	.
12b-X 12B-X^\	.	.	.	.
.	.	8eeeJ 8ee/)	.	]
*Xped	*	*	*	*
12gJ 12G^\	.	.	.	.
*ped	*	*	*	*
8CL 8CC\	.	(4ggg 4ccc 4bb- 4gg\	.	>
8gJ 8G^\	.	.	.	.
12aL 12A^\	.	8fff#L 8ff#/	.	.
12b- 12B-^\	.	.	.	]
.	.	8eeeJ 8ee/)	.	.
*Xped	*	*	*	*
12gJ 12G^\	.	.	.	.
!!LO:LB:g=original
=18	=18	=18	=18	=18
*	*	*^	*	*
*8ba	*	*	*	*	*
!LO:TX:t=P:problem:mixed beam	!	!	!	!	!
12.CC#XL 12.CCC#X/	.	8eeee 8cccc# 8ggg# 8eee\	4ryy	.	.
*X8ba	*	*X8va	*	*	*
N[24g#>K N[24e>\	.	8ryy	.	.	.
12d#J 12D#/	.	.	.	.	.
12c#L 12C#\	.	12dd#/L	4g#N] 4e\N]	.	.
12B 12BB\	.	12ee/	.	.	.
!LO:SIC:v:s=12AnJ 12AAn\	!	!	!	!	!
12A#J 12AA#\	.	12cc#/J	.	.	.
*	*	*8va	*	*	*
12CnL 12CCn\	.	(4gggn 4cccn 4bb-X 4ggn\	2ryy	.	>
12r	.	.	.	.	.
12gnJ 12Gn\	.	.	.	.	.
12anL 12An\	.	8fff#L 8ff#\	.	.	.
12b-X 12B-X\	.	.	.	.	.
.	.	8eeeJ 8ee\)	.	.	]
12gJ 12G\	.	.	.	.	.
=19	=19	=19	=19	=19	=19
*8ba	*	*	*	*	*
!LO:TX:t=P:problem:mixed beam	!	!	!	!	!
12.CC#XL 12.CCC#X/	.	8eeee 8cccc#X 8ggg#X 8eee\	4ryy	.	.
*X8ba	*	*X8va	*	*	*
N[24g#>K N[24e>\	.	8ryy	.	.	.
12d#J 12D#/	.	.	.	.	.
*	*	*Xtuplet	*	*	*
12c#L 12C#\	.	12dd#/L	4g#N] 4e\N]	.	.
12B 12BB\	.	12ee/	.	.	.
12AnJ 12AAn\	.	12cc#/J	.	.	.
*	*	*8va	*	*	*
12CnL 12CCn\	.	(4gggn 4cccn 4bb-X 4ggn\	2ryy	.	>
12r	.	.	.	.	.
12gnJ 12Gn\	.	.	.	.	.
12anL 12An\	.	8fff#XL 8ff#X\	.	.	.
12b-X 12B-X\	.	.	.	.	.
.	.	8eeeJ 8ee\)	.	.	.
12gJ 12G\	.	.	.	.	.
=20	=20	=20	=20	=20	=20
*8ba	*	*	*	*	*
!LO:TX:t=P:problem:mixed beam	!	!	!	!	!
12.CC#XL 12.CCC#X/	.	8eeee 8cccc#X 8ggg#X 8eee\	4ryy	.	]
*X8ba	*	*X8va	*	*	*
N[24g#>K N[24e>\	.	8ryy	.	.	.
12d#J 12D#\	.	.	.	.	.
*	*	*tuplet	*	*	*
!	!	!	!	!	!LO:HP:t=dimin. sempre rallent.
12c#L 12C#\	.	12dd#/L	4g#N] 4e\N]	.	>
12B 12BB\	.	12ee/	.	.	.
12AnJ 12AAn\	.	12cc#/J	.	.	.
*8ba	*	*Xtuplet	*	*	*
12CC# 12CCC#\	.	12ryy	2ryy	.	.
*X8ba	*	*	*	*	*
12ryy	.	24rA<	.	.	.
.	.	[[24G#< [[>24E</	.	.	.
12D# 12DD#\	.	12ryy	.	.	.
.	.	.	.	.	.
*	*	*Xtuplet	*	*	*
12C#L 12CC#\	.	12d#<L 12G#<]] 12E</]]	.	.	.
12BB 12BBB\	.	12e</	.	.	.
12AAnJ 12AAAn\	.	12c#</J	.	.	.
*	*	*v	*v	*	*
!!LO:LB:g=original
=21	=21	=21	=21	=21
*8ba	*	*	*	*
12CC# 12CCC#\	.	12ryy	.	.
*X8ba	*	*	*	*
12ryy	.	24rA<	.	.
.	.	[[24G#< [[24E</	.	.
12D# 12DD#\	.	12ryy	.	.
.	.	.	.	.
12C#L 12CC#\	.	12d#<L 12G#<]] 12E</]]	.	p
12BB 12BBB\	.	12e</	.	.
12AAnJ 12AAAn\	.	12c#</J	.	.
*8ba	*	*	*	*
12CC# 12CCC#\	.	12ryy	.	.
*X8ba	*	*	*	*
12ryy	.	24rA<	.	pp
.	.	(>[[24G#< [[24E</	.	.
(12D# 12DD#\	.	12ryy	.	.
12C#L 12CC#\	.	12d#<L 12G#<]] 12E</]]	.	.
12BB 12BBB\	.	12e</	.	.
12AAJ 12AAA;<\)	.	12c#<;/J)	.	.
=22||	=22||	=22||	=22||	=22||
*k[f#c#g#d#]	*	*k[f#c#g#d#]	*	*
*MM76	*	*MM76	*	*
*	*	*^	*	*^
*8ba	*	*	*	*	*	*
!!LO:TX:a:rj:t=[quarter]=76.
!!LO:TX:a:i:t=un poco più lento, molto espressivo
!	!	!	!	!	!LO:DY:b	!
[2BBB [2EEE/	.	8r	2ryy	.	mf	.
*	*	*	*	*above	*	*
.	.	(>8G#L 8E/	.	1 3	.	.
.	.	8A 8F#/	.	.	<	.
.	.	8BJ 8G#/	.	.	.	.
8BBB] 8EEE/]	.	8c#/	[2A\	1 2	.	.
*X8ba	*	*	*	*	*	*
!	!	!	!	!	!	!LO:HP:b=2
(8GG#/L	3	4g#/	.	5	[	<
8AA/	.	.	.	.	.	.
8BB/J	.	8f#/	.	.	>	.
=23	=23	=23	=23	=23	=23	=23
*^	*	*	*	*	*	*
8C#/	2ryy	3	4e/	2A\]	.	.	[
!	!	!	!	!	!	!	!LO:HP:b=2
4G#\	.	1	.	.	.	]	>
.	.	.	4d#/)	.	.	.	.
8F#\)	.	.	.	.	.	.	.
2A/	(4E\	3	(8cc#/	2f#\	1 3	<	]
.	.	.	4dd#/	.	.	[>	.
.	4D#\)	.	.	.	.	]	.
.	.	.	8cc#/)	.	.	.	.
*v	*v	*	*	*	*	*v	*v
=24	=24	=24	=24	=24	=24
(8GG#\L	5	(4gg#/	(8b#X\	5	<
8D#\	3	.	4cc#\	.	[
8F#\	.	4ff#/)	.	4	>
8B#X\J)	.	.	8b#\)	.	]
*	*	*	*	*below	*
(8AA\L	5	8r	(4bn\	2	.
*	*	*	*	*above	*
8E\	3	(4dd#/	.	4	.
8A\	2	.	4a\	.	>
8c#\J)	1	8ee/	.	.	.
!!LO:PB:g=original
=25	=25	=25	=25	=25	=25
!	!	!LO:TX:t=P:problem:brak zakończenia łuku	!	!	!
(8FF#\L	5	4.ccc#::/)	4g#::\	.	.
8C#\	3	.	.	.	.
8F#\	.	.	4f#\)	.	]
8A\J	.	8rccc	.	.	.
8F#\L	.	2r	2ryy	.	.
8c#\	.	.	.	.	.
8f#\	.	.	.	.	.
8a\J)	.	.	.	.	.
=26	=26	=26	=26	=26	=26
*ped	*	*	*	*	*
(8DD#\L	.	8r	2ryy	.	.
*	*above	*	*	*	*
8A\	3	(8ff#\L	.	3	.
8c#\	.	8gg#\	.	.	.
*Xped	*	*	*	*	*
8f#\J)	.	8aa\J	.	.	.
*ped	*	*	*	*	*
!	!	!LO:TX:t=P:problem:łuczek nad oznaczeniem palcowania	!	!	!
(8GG#\L	.	4.gg#/	8rf	45	.
*	*below	*	*	*	*
8D#\	3	.	8b#X\L	.	.
8F#\	.	.	8cc#\	.	.
*Xped	*	*	*	*	*
8B#X\J)	.	8ff#/)	8dd#\J	3 4	.
=27	=27	=27	=27	=27	=27
*ped	*	*	*	*	*
(8AA\L	.	8raa	(4bn\	.	.
8E\	3	(4dd#/	.	3	.
8A\	.	.	4a\	.	.
*Xped	*	*	*	*	*
8c#\J)	.	8ee/	.	.	.
*ped	*	*	*	*	*
(8EE\L	.	4gg#::/)	4g#::\)	.	.
8C#\	4	.	.	.	.
8G#\	.	4r	4ryy	.	.
*Xped	*	*	*	*	*
8c#\J)	.	.	.	.	.
=28	=28	=28	=28	=28	=28
*ped	*	*	*	*	*
(8DD#\L	.	8r	2ryy	.	.
8A\	.	(8dd#\L	.	3	.
8c#\	.	8ee\	.	.	.
*Xped	*	*	*	*	*
8f#\J)	.	8ff#\J	.	.	.
*ped	*	*	*	*	*
!	!	!LO:TX:t=P:problem:łuczek nad oznaczeniem palcowania	!	!	!
(8GG#\L	.	4.ee/	8re	45	.
8D#\	.	.	(8a\L	1	.
8F#\	.	.	8g#\	2	.
*Xped	*	*	*	*	*
8B#X\J)	.	8dd#/)	8f#\J)	1 4	.
!!LO:LB:g=original
=29	=29	=29	=29	=29	=29
*ped	*	*	*	*	*
(8AA\L	.	8rdd	2e\	.	.
8d#\	1	(4b#X/	.	3	.
8c#\	.	.	.	.	.
*Xped	*	*	*	*	*
8A\J)	.	8cc#/	.	.	.
*ped	*	*	*	*	*
(8FFF#/L	.	2ee: 2ccn: 2a: 2e:/)	2ryy	.	.
8FF#/	5	.	.	.	.
8E/	2	.	.	.	.
*Xped	*	*	*	*	*
8cn/J)	.	.	.	.	.
=30	=30	=30	=30	=30	=30
*^	*	*	*	*	*
8rA	2GG#\	.	8r	2ryy	.	.
(8F#/L	.	1	(8B#X/L	.	1	<
8E/	.	.	8c#/	.	.	.
8D#/J)	.	.	8d#/J	.	.	[
(4E/	2AA\	.	8rdd	2c#\)	.	.
.	.	.	(4g#/	.	5	>
4D#/)	.	.	.	.	.	.
.	.	.	8f#/)	.	.	]
=31	=31	=31	=31	=31	=31	=31
8rA	(2GG#\	.	8r	2ryy	.	.
(8A/L	.	.	&(8B#X/L	.	.	.
8Gn/	.	.	8c#/	.	.	.
8F#/J	.	.	8d#/J	.	.	.
*	*	*above	*	*	*	*
8Fn/L	2AA\)	1	8rdd	4c#\	.	.
8E/J	.	.	(4g#/	.	5	.
4D#/)	.	.	.	4cn\&)	.	.
.	.	.	8f##X/)	.	4	.
*v	*v	*	*	*	*	*
=32	=32	=32	=32	=32	=32
*8ba	*	*	*	*	*
[2BBB [2EEE/	.	8r	2ryy	.	.
.	.	(>8G#L 8E/	.	1 3	<
.	.	8A 8F#/	.	.	.
.	.	8BJ 8G#/	.	.	.
8BBB] 8EEE/]	.	8c#/	[2A\	1 2	[
*X8ba	*below	*	*	*	*
(8GG#/L	3	4g#/	.	.	.
8AA/	.	.	.	.	.
8BB/J	.	8f#/	.	.	.
!!LO:LB:g=original
=33	=33	=33	=33	=33	=33
*^	*	*	*	*	*
8C#/	2ryy	3	4e/	2A\]	.	.
4G#\	.	1	.	.	.	.
.	.	.	4d#/)	.	.	.
8F#\)	.	.	.	.	.	.
!	!	!	!	!	!	!LO:HP:a
2A/	(4E\	3	(8cc#/	2f#\	1 3	<
.	.	.	4dd#/	.	.	[
!	!	!	!	!	!	!LO:HP:a
.	.	.	.	.	.	>
.	4D#\)	.	.	.	.	.
.	.	.	8cc#/)	.	.	]
*v	*v	*	*	*	*	*
=34	=34	=34	=34	=34	=34
*	*	*	*	*	*^
!	!	!	!	!	!LO:HP:a	!LO:HP:b
(8GG#\L	.	(4gg#/	(8b#X\	1 5	>	<[
8D#\	3	.	4cc#\	.	.	.
!	!	!	!	!	!	!LO:HP:b
.	.	.	.	.	.	>
8F#\	.	4ff#/)	.	.	]	.
.	.	.	.	.	.	]
8B#X\J)	.	.	8b#\)	.	.	.
(8AA\L	.	8rccc	(4bn\	.	.	.
!	!	!	!	!	!LO:HP:a	!
8E\	3	(4dd#/	.	3	<	.
8A\	2	.	4a\)	.	.	.
8c#\J)	1	8ee/)	.	.	.	.
=35	=35	=35	=35	=35	=35	=35
(8EE\L	.	2gg#::/	8g#::\	.	[	.
8C#\	4	.	8r	.	.	.
8G#\	.	.	4r	.	.	.
8c#\J)	.	.	.	.	.	.
(8AA\L	.	8raa	8ccn\L	2	.	.
8E\	3	(4dd#/	8b\	.	.	.
8An\	.	.	8a#X\	.	.	.
8c#\J)	1	8ee/	8an\J	.	.	.
*	*	*	*	*	*v	*v
!!LO:LB:g=original
=36	=36	=36	=36	=36	=36
*	*	*	*	*below	*
(8EE\L	.	4gg#::/)	(8g#::\L	1-	.
8C#\	4	.	8gn\	-1	.
8G#\	.	4rff	8f#\	3	.
8c#\J)	.	.	[8fn\J	.	.
(4AA/	5	2ryy	8f\]	.	.
.	.	.	4.e\)	.	.
8E\L	2	.	.	.	.
8c#\J)	.	.	.	.	.
*	*	*v	*v	*	*
=37	=37	=37	=37	=37
*	*	*X8va	*	*
8r	.	2d#/	.	.
(8AA\L	.	.	.	.
8E\	.	.	.	.
8cn\J)	.	.	.	.
(8EEE/L	.	2gg# 2ddn 2g#\	.	.
!	!	!LO:TX:b:i:t=rit.	!	!
8EE/	5	.	.	.
8BB/	.	.	.	.
8G#/J)	1	.	.	.
*clefG2	*	*	*	*
=38	=38	=38	=38	=38
*	*	*8va	*	*
!	!	!LO:TX:t=P:problem:pionowa klamra łukowa	!	!
4ccc#: 4ff#: 4ddn: 4g#:\	.	4ccc# 4ff# 4ddn\	.	.
!	!	!LO:TX:t=P:problem:pionowa klamra łukowa	!	!
4ff#: 4b: 4g#: 4dn:\	.	4aa#X 4dd 4g#\	.	.
*clefF4	*	*	*	*
(8EEE/L	.	4bb: 4ddn: 4f#:\	.	.
8EE/	5	.	.	.
*	*	*X8va	*	*
8BB/	.	4ee 4ddn 4g#~\	.	.
8G#/J)	.	.	.	.
*clefG2	*	*	*	*
=39	=39	=39	=39	=39
*	*	*8va	*	*
!	!	!LO:TX:t=P:problem:pionowa klamra łukowa	!	!
4ccc#: 4ff#: 4ddn: 4g#:\	.	4ccc# 4ff# 4ddn\	.	.
!	!	!LO:TX:t=P:problem:pionowa klamra łukowa	!	!
4ff#: 4b: 4g#: 4dn:/	.	4aa#X 4dd 4g#\	.	.
*clefF4	*	*	*	*
(8EEE/L	.	4bb: 4dd: 4f#:\	.	.
8EE/	.	.	.	.
*	*	*X8va	*	*
8BB/	.	4ee 4dd 4g#~\	.	.
8G#/J)	.	.	.	.
*clefG2	*	*	*	*
!!LO:LB:g=original
=40	=40	=40	=40	=40
*^	*	*	*	*
*	*	*	*8va	*	*
4ccn:: 4e:: 4A::/	2ryy	1 2 5	4aan:: 4ccn:: 4f#::\	.	.
!	!	!	!LO:TX:t=P:problem:pionowa klamra łukowa	!	!
4a#X: 4c#X: 4F#:/	.	1 3 5	4ff##X 4a#X 4f# 4e\	.	ppp
!	!	!	!LO:TX:t=P:problem:klamra między pięcioliniami	!	!
4ee 4b 4g#/	8r	.	4gg# 4b 4f#X\	.	.
*clefF4	*	*	*X8va	*	*
.	(8EEE/L	.	.	.	.
4ryy	8BB/	.	4r	.	.
.	8G#/J)	.	.	.	.
*clefG2	*	*	*	*	*
=41	=41	=41	=41	=41	=41
*	*	*	*8va	*	*
4ccn:: 4e:: 4A::/	2ryy	.	4aan:: 4ccn:: 4f#::\	.	.
!	!	!	!LO:TX:t=P:problem:pionowa klamra łukowa	!	!
4a#X: 4c#X: 4F#:/	.	.	4ff##X 4a#X 4f# 4e\	.	.
4ee 4b 4g#/	8r	.	4gg# 4b 4f#X\	.	.
*clefF4	*	*	*X8va	*	*
.	(8EEE/L	.	.	.	.
4ryy	8BB/	.	4r	.	.
.	8G#/J)	.	.	.	.
*v	*v	*	*	*	*
*	*	*clefF4	*	*
=42	=42	=42	=42	=42
*	*	*^	*	*^
!	!	!	!	!	!LO:DY:b	!LO:DY:a=2
2EEE/	.	8r	2ryy	.	p	sfz
*	*	*	*	*above	*	*
!LO:TX:a:i:t=molto espress.	!	!	!	!	!LO:HP:b	!
.	.	(>8GG#/L	.	2	<	.
.	.	8AA/	.	1	.	.
.	.	8BB/J	.	.	[	.
8r	.	8C#/	[2AA\	1 3	.	.
!	!	!	!	!	!	!LO:HP:a=2
(8GGG#/L	3	4G#/	.	5	.	<
!	!	!	!	!	!LO:HP:b	!
.	.	.	.	.	>	.
8AAA/	.	.	.	.	.	.
8BBB/J	.	8F#/)	.	.	]	.
=43	=43	=43	=43	=43	=43	=43
8CC#/	3	(4E/	2AA\]	.	]	[
4GG#/	1	.	.	.	.	.
!	!	!	!	!	!	!LO:HP:a=2
.	.	.	.	.	.	>
.	.	4D#/)	.	.	.	.
8FF#/)	.	.	.	.	.	]
!	!	!	!	!	!LO:HP:b	!
2AA 2FFn/	1 3	(8A/	2Dn\	.	<	.
!	!	!	!	!	!LO:HP:b	!
.	.	4B/	.	.	[>	.
.	.	.	.	.	]	.
.	.	8A/)	.	.	.	.
*	*	*v	*v	*	*v	*v
!!LO:PB:g=original
=44||	=44||	=44||	=44||	=44||
*k[]	*	*k[]	*	*
*^	*	*^	*	*
!	!	!	!LO:TX:a:i:t=poco a poco accelerando:dur=5q:ext=s:problem:text with extention lines	!	!	!LO:HP:b
2BB/	(4EE\	.	2e/	(8G#X\	.	<
.	.	.	.	.	.	[
!	!	!	!	!	!	!LO:HP:b
.	.	.	.	4A\	.	>
.	4DD\)	.	.	.	.	]
.	.	.	.	8G#\)	.	.
!	!	!	!	!	!	!LO:HP:a=2
(8C 8CC/	2ryy	.	2f 2e-X 2A 2F\	4ryy	.	<
4D 4DD/	.	.	.	.	.	[
!	!	!	!	!	!	!LO:HP:a=2
.	.	.	.	.	.	>
.	.	.	.	4ryy	.	.
8C 8CC/)	.	.	.	.	.	]
*v	*v	*	*	*	*	*
*	*	*clefG2	*	*	*
=45	=45	=45	=45	=45	=45
!	!	!	!	!	!LO:HP:a=2
(8BB 8BBB/	.	2een 2g#X 2d/	8ryy	.	<
.	.	.	.	.	.
4C 4CC/	.	.	4ryy	.	[
!	!	!	!	!	!LO:HP:a=2
.	.	.	.	.	>
8BB 8BBB/)	.	.	8ryy	.	]
!	!	!	!	!	!LO:HP:a=2
(8FF 8FFF/	.	2aa 2ff 2cc 2a\	8ryy	.	<
4GG 4GGG/	.	.	4ryy	.	[
!	!	!	!	!	!LO:HP:a=2
.	.	.	.	.	>
8FF 8FFF/)	.	.	8ryy	.	]
=46	=46	=46	=46	=46	=46
*tuplet	*	*	*	*	*
*8ba	*	*	*	*	*
!LO:TX:t=P:problem:mixed beam	!	!LO:TX:a:i:t=Tempo I [quarter]=108.	!	!	!
!LO:TUP:b	!	!	!	!	!
12.CC#XL 12.CCC#X/	.	4ryy	4ryy	.	.
*X8ba	*above	*	*	*	*
!	!	!LO:TX:b:i:t=poco a poco cresc.:ext=s:problem:text with extention lines	!	!	!
N[[24c#X>K N[[24A>\	1 2	.	.	.	<
(12G#XJ 12GG#X/	.	.	.	.	.
*	*	*tuplet	*	*	*
8F#XL 8FF#X/	.	12g#X/L	4c#XN]] 4A\N]]	4	.
.	.	12a/	.	.	.
8EJ 8EE/)	.	.	.	.	.
.	.	12f#X/J	.	.	.
8DDL 8DDD/	.	(4cc#X::/	2f#X:: 2c#X::\	.	.
(8C#XJ 8CC#X/	.	.	.	.	[
!LO:TUP:b	!	!	!	!	!
12DL 12DD/	.	8b/L	.	.	.
12E 12EE/	.	.	.	.	.
.	.	8a/J)	.	.	.
12F#XJ 12FF#X/)	.	.	.	.	.
!!LO:LB:g=original
=47	=47	=47	=47	=47	=47
*Xtuplet	*above	*	*	*	*
!LO:TX:t=P:problem:mixed beam	!	!	!	!	!
12.AL 12.AA/	.	4ryy	4ryy	.	.
N[[24e>K N[[24c#X>\	1 2	.	.	.	.
(12G#XJ 12GG#X/	.	.	.	.	.
8F#XL 8FF#X/	.	12b/L	4eN]] 4c#\N]]	4	.
.	.	12cc#X/	.	.	.
8EJ 8EE/)	.	.	.	.	.
.	.	12a/J	.	.	.
(8BBL 8BBB/	.	(4ee 4a 4fn 4e/	2ryy	.	<
8CnJ 8CCn/	.	.	.	.	.
*tuplet	*	*	*	*	*
!LO:TUP:b	!	!	!	!	!
12DL 12DD/	.	8ddL 8d/	.	.	.
12E 12EE/	.	.	.	.	.
.	.	8ccnJ 8a-X 8e-X 8cn/)	.	.	[
12FnJ 12FFn/)	.	.	.	.	.
=48	=48	=48	=48	=48	=48
*^	*	*	*	*	*
8GL 8GG\	2.ryy	.	(4gg 4ee-X/	2cc 2g\	.	f >
(8cJ 8C\	.	.	.	.	.	.
12dL 12D\	.	.	8ff/L	.	.	.
12e-X 12E-X\	.	.	.	.	.	.
.	.	.	8ee-X/J)	.	.	]
12cJ 12C\)	.	.	.	.	.	.
*Xtuplet	*	*	*	*	*	*
!LO:TX:t=P:problem:mixed beam	!	!	!	!	!	!
12.AAL 12.AAA/	.	.	8ccc 8gg 8ee- 8cc^^\	2ryy	.	.
!	!	!	!	!	!	!LO:DY:a
24c>\K	.	1	8ryy	.	.	sfz
*	*	*	*Xtuplet	*	*	*
12G#XJ [<12C [<12AA/	.	1	.	.	.	.
8Gn/L	4C] 4AA\]	1	12d^/L	.	2	.
.	.	.	12e-X^/	.	.	.
8F#X/J	.	2	.	.	.	.
.	.	.	12c^/J	.	.	.
*	*	*	*v	*v	*	*
=49	=49	=49	=49	=49	=49
8GGL 8GGG/	2.ryy	.	(4gg 4ee-X 4cc 4g\	.	.
(8CJ 8CC/	.	.	.	.	.
12DL 12DD/	.	.	8ff#XL 8ee- 8cc 8f#X\	.	.
12E-X 12EE-X/	.	.	.	.	.
.	.	.	8ee-J 8e-X\)	.	.
12CJ 12CC/)	.	.	.	.	.
!LO:TX:t=P:problem:mixed beam	!	!	!	!	!
12.AAL 12.AAA/	.	.	8ccc 8gg 8ee- 8cc^^\	.	.
!	!	!	!	!	!LO:DY:a
24c>\K	.	.	8ryy	.	sfz
12G#XJ [<12C [<12AA/	.	.	.	.	.
8Gn/L	4C] 4AA\]	.	12d^/L	.	.
.	.	.	12e-X^/	.	.
8F#X/J	.	.	.	.	.
.	.	.	12c^/J	.	.
!!LO:LB:g=original
=50	=50	=50	=50	=50	=50
*	*^	*	*	*	*
*	*	*	*below	*	*	*
(24BB-X\LL	2ryy	2.ryy	5	8r	.	.
24E-X\	.	.	3	.	.	.
24G\	.	.	2	.	.	.
24B-X\	.	.	1	(8eee-X\	3	.
24e-X\	.	.	3	.	.	.
24g\JJ	.	.	2	.	.	.
*	*	*	*	*tuplet	*	*
!	!	!	!	!LO:TUP:a	!	!
24b-X\LL	.	.	1	12fff\L	.	>
24g\	.	.	.	.	.	.
24e-\	.	.	.	12ggg\	.	.
24B-\	.	.	1	.	.	.
24G\	.	.	.	12eee-\J)	.	]
24E-\JJ)	.	.	.	.	.	.
!	!	!	!	!	!	!LO:HP:b=2
(8d/L	(4BB-\	.	.	8gg'\L	1	>
8c/J	.	.	.	8bb-X'\J	2	.
*	*	*	*	*Xtuplet	*	*
4Bn/)	4GG\)	12E-X^>/L	.	(24bbn\LL	5	]>
.	.	.	.	24gg\	4	.
.	.	12F^>/	.	24ee-X\	2	.
.	.	.	.	24bn\	1	.
.	.	12D^>/J	.	24g\	4	.
.	.	.	.	24e-X\JJ)	2	]
=51	=51	=51	=51	=51	=51	=51
*	*	*	*	*	*	*^
(24BB-X\LL	2ryy	2.ryy	.	8r	.	.	.
24E-X\	.	.	.	.	.	.	.
24G\	.	.	.	.	.	.	.
24B-X\	.	.	.	(8eee-X\	3	.	.
24e-X\	.	.	.	.	.	.	.
24g\JJ	.	.	.	.	.	.	.
*	*	*	*	*tuplet	*	*	*
!	!	!	!	!LO:TUP:a	!	!	!
24b-X\LL	.	.	.	12fff\L	.	.	.
24g\	.	.	.	.	.	.	.
24e-\	.	.	.	12ggg\	.	.	.
24B-\	.	.	.	.	.	.	.
24G\	.	.	.	12eee-\J)	.	.	.
24E-\JJ)	.	.	.	.	.	.	.
!	!	!	!	!	!	!	!LO:HP:b=2
(8d/L	(4BB-\	.	.	8gg'\L	1	>	>
8c/J	.	.	.	8bb-X\J	2	.	.
*	*	*	*	*Xtuplet	*	*	*
4Bn/)	4GG\)	12E-X^/L	.	(24bbn\LL	5	.	]
.	.	.	.	24gg\	.	.	.
.	.	12F^/	.	24ee-X\	.	.	.
.	.	.	.	24b\	.	.	.
.	.	12D^/J	.	24g\	.	.	.
.	.	.	.	24e-X\JJ)	.	]	.
*v	*v	*v	*	*	*	*v	*v
!!LO:LB:g=original
=52||	=52||	=52||	=52||	=52||
*M3/4	*	*M3/4	*	*
*^	*	*	*	*
(28AA-X\LL	2ryy	5	8r	.	<
28E-X\	.	3	.	.	.
28F\	.	.	.	.	.
28G\	.	.	.	.	.
.	.	.	8ccc^\	1	.
28A-X\	.	3	.	.	.
28B-X\	.	.	.	.	.
28c\JJ	.	.	.	.	.
*clefG2	*	*	*tuplet	*	*
!	!	!	!LO:TUP:a	!	!
28d-X/LL	.	4	12dddn^\L	.	.
28e-X/	.	.	.	.	.
28f/	.	.	.	.	.
.	.	.	12eee-X^\	.	.
28g/	.	.	.	.	.
28a-X/	.	3	.	.	.
.	.	.	12ccc^\J	.	.
28b-X/	.	.	.	.	.
28cc/JJ)	.	.	.	.	[
*clefF4	*	*	*Xtuplet	*	*
12E-X^/L	8Bn 8GG\	.	(24bbn^\LL	5	.
.	.	.	24gg\	.	.
12F^/	.	.	24ee-X\	.	.
.	8ryy	.	24b\	.	.
12Dn^>/J	.	.	24g\	.	.
.	.	.	24e-X\JJ)	.	.
=53	=53	=53	=53	=53	=53
(28AA-X\LL	2ryy	.	8r	.	.
28E-X\	.	.	.	.	.
28F\	.	.	.	.	.
28G\	.	.	.	.	.
.	.	.	8ccc^\	1	.
28A-X\	.	.	.	.	.
28B-X\	.	.	.	.	.
28c\JJ	.	.	.	.	.
*clefG2	*	*	*	*	*
28d-/LL	.	.	12dddn^\L	.	.
28e-X/	.	.	.	.	.
28f/	.	.	.	.	.
.	.	.	12eee-X^\	.	.
28g/	.	.	.	.	.
28a-X/	.	.	.	.	.
.	.	.	12ccc^\J	.	.
28b-X/	.	.	.	.	.
28cc/JJ)	.	.	.	.	.
*clefF4	*	*	*	*	*
12E-X^/L	8Bn 8GG\	.	(24bbn^\LL	5	.
.	.	.	24gg\	.	.
12F^/	.	.	24ee-X\	.	.
.	8ryy	.	24b\	.	.
12Dn^>/J	.	.	24g\	.	.
.	.	.	24e-X\JJ)	.	.
*v	*v	*	*	*	*
!!LO:LB:g=original
=54||	=54||	=54||	=54||	=54||
*M4/4	*	*M4/4	*	*
*met(c)	*	*met(c)	*	*
(24AA-X^\LL	5	8r	.	.
24E-X\	3	.	.	.
24A-X\	.	.	.	.
24c\	.	8ccc 8cc'\	.	ff
24A-\	.	.	.	.
24E-\JJ)	.	.	.	.
(24AAn^\LL	5	12dddL 12dd'\	.	<
24E-X\	3	.	.	.
24G\	.	12eee-X 12ee-X'\	.	.
24c\	.	.	.	.
24G\	.	12cccJ 12cc'\	.	.
24E-\JJ)	.	.	.	.
(24BB-X^\LL	5	8r	.	.
24E-X\	3	.	.	.
24F\	.	.	.	.
*	*	*8va	*	*
24G\	.	8gg 8g'\	.	.
24A-X\	2	.	.	.
24B-X\JJ)	1	.	.	.
(24BBn^\LL	5	12a-XL 12aa-X'\	.	.
24E-\	3	.	.	.
24G\	.	12bb-X 12b-X'\	.	.
24e-X\	.	.	.	.
24G\	.	12ggJ 12g'\	.	[
24E-\JJ)	.	.	.	.
=55	=55	=55	=55	=55
(24C\LL	5	4ggg 4eee-X 4ccc 4gg\	.	fff
24G\	2	.	.	.
24c\	1	.	.	.
24e-X\	4	.	.	.
24g\	.	.	.	.
24cc\JJ)	.	.	.	.
*clefG2	*	*	*	*
8cccL 8ff#X 8ee-X'\	.	8fffnL 8ffn\	.	.
8cccJ 8gg 8cc'\	.	8eee-XJ 8ee-X\	.	.
*clefF4	*	*X8va	*	*
(24AA-X\LL	5	8r	.	.
24E-X\	3	.	.	.
24G-X\	2	.	.	.
24c\J	1	8cc 8a-X^\	1 3	.
[12e-X\J)	2	.	.	.
*	*	*tuplet	*	*
8e-\]	.	12ddnL 12b-X^\	2 4	.
.	.	12ff 12dd-X^\	3 5	.
8r	.	.	.	.
.	.	12ee-XJ 12cc^\	2 4	.
!!LO:PB:g=original
=56	=56	=56	=56	=56
(24CC/LL	.	(4ggg 4eee-X 4ccc 4gg\	.	.
24GG/	.	.	.	.
24C/	.	.	.	.
24E-X/	4	.	.	.
24G/	.	.	.	.
24c/JJ)	.	.	.	.
*clefG2	*	*	*	*
8ccL 8f#X 8e-X/	.	8fffnL 8ffn\	.	.
8ccJ 8g 8c/	.	8eee-XJ 8ee-X\)	.	.
*clefF4	*	*	*	*
(24AAA-X/LL	5	8r	.	.
24EE-X/	3	.	.	.
24GG-X/	2	.	.	.
24C/J	.	8c 8A-X^/	1 3	.
[>12E-X/J)	.	.	.	.
8E-\]	.	12dL 12B-X^/	.	.
.	.	12f 12d-X^/	.	.
8r	.	.	.	.
.	.	[12enJ [12c^/	.	.
=57	=57	=57	=57	=57
(24A#X/LL	1	8e]L 8c/]	.	.
24G#X/	.	.	.	.
24F#X/	.	.	.	.
24AA#X/	1	(>8d#X 8B/	1 3	<
24GG#X/	.	.	.	.
24FF#X/JJ	.	.	.	.
4BBB/)	.	8e 8c#X/	.	.
.	.	8f#XJ 8d#X/	3 5	.
(32FF#X\LLL	5	8g#X 8e/	1 3	[
32C#X\	.	.	.	.
32E\	.	.	.	.
32A#X\JJJ	1	.	.	.
8g#X>^\L)	2	4dd#X^>/	5	.
8f#X>^\	3	.	.	.
8e>^\J	4	8cc#X/)	.	.
!!LO:LB:g=original
=58	=58	=58	=58	=58
(24A#X/LL	1	8r	.	.
24G#X/	.	.	.	.
24F#X/	.	.	.	.
24AA#X/	1	(>8d#XL 8B/	.	<
24GG#X/	.	.	.	.
24FF#X/JJ	.	.	.	.
4BBB/)	.	8e 8c#X/	.	.
.	.	8f#XJ 8d#/	.	.
(32FF#X\LLL	5	8g#X 8e/	.	.
32C#X\	.	.	.	[
32E\	.	.	.	.
32A#X\JJJ	1	.	.	.
8g#X\L	2	4ddn^\	.	.
8f#X\	.	.	.	.
8e\J)	.	8cc#X\)	.	.
=59	=59	=59	=59	=59
16EE 16EEE^/	.	8r	.	.
(16cn\LL	.	.	.	.
16B\	.	(8gnL 8e/	1 3	<
16G\JJ	.	.	.	.
24Cn/LL	.	8a 8f#X/	.	.
24BB/	.	.	.	.
24GG/J	.	.	.	.
8EE/J)	.	8bJ 8g/)	.	.
(8AAL 8AAA/	.	8f#X 8e/	.	[
8c 8F#X 8E/)	3	(4ee 4cc 4g\	1 3 5	>
(8BB 8BBB/	.	.	.	.
8d#XJ 8A 8F#/)	4	8dd#X 8b 8f#/)	4	]
=60	=60	=60	=60	=60
8EE 8EEE/	.	8r	.	.
(24c\LL	1	(8gL 8e/	.	<
24B\	2	.	.	.
24G\JJ	4	.	.	.
24C/LL	1	8a 8f#X/	.	.
24BB/	.	.	.	.
24GG/J	.	.	.	.
8EE/J)	.	8bJ 8g/)	.	[
(8AAL 8AAA/	.	8f#X/	.	.
*	*	*X8va	*	*
8c 8F#X 8E/)	.	(4gg 4ee 4b 4g\	.	>
(8BB 8BBB/	.	.	.	.
8d#XJ 8A 8F#/)	.	8ff#X 8dd#X 8b 8f#X\)	.	]
!!LO:LB:g=original
=61	=61	=61	=61	=61
8CL 8CC\	.	8r	.	.
8f#XJ 8F#X^\	.	8ee 8cc 8g 8e^>/	.	.
!LO:TX:t=P:problem:mixed beam	!	!	!	!
24fnLL 24Fn^/	.	4ryy	.	.
24ff#X> 24f#X>^\	.	.	.	.
24e 24E^/	.	.	.	.
24gg> 24g>^\	.	.	.	.
24d 24D^/	.	.	.	.
24ee>JJ 24e>^\	.	.	.	.
!	!	!LO:TX:b:i:t=tempo	!	!
8C#XL 8CC#X\	.	8r	.	.
*	*	*8va	*	*
8eJ 8E^\	.	(8bbbL 8eee 8bb\	.	.
12f#XL 12F#X^\	.	8aaa#X 8aa#X\	.	.
12g 12G^\	.	.	.	.
.	.	8gggJ 8gg\)	.	.
12eJ 12E^\	.	.	.	.
*	*	*X8va	*	*
=62	=62	=62	=62	=62
8CnL 8CCn\	.	8r	.	.
*	*	*X8va	*	*
8f#XJ 8F#X\	.	8ee 8cc 8g 8e/	.	.
!LO:TX:t=P:problem:mixed beam	!	!	!	!
24fnLL 24Fn^/	.	4ryy	.	.
24ff#X> 24f#X>^\	.	.	.	.
24e 24E^/	.	.	.	.
24gg> 24g>^\	.	.	.	.
24d 24D^/	.	.	.	.
24ee>JJ 24e>^\	.	.	.	.
!	!	!LO:TX:b:i:t=tempo	!	!
8C#XL 8CC#X\	.	8r	.	.
*	*	*8va	*	*
8gJ 8G^\	.	8ffff#XL 8bbb 8fff#X\	.	.
12aL 12A^\	.	8eeee 8eee\	.	.
12b 12B^\	.	.	.	.
.	.	8bbbJ 8bb\	.	.
12gJ 12G^\	.	.	.	.
!!LO:LB:g=original
=63	=63	=63	=63	=63
8FF#XL 8FFF#X/	.	8ryy	.	.
*clefG2	*	*	*	*
8ggJ 8ee 8b 8g;/	.	8gggg 8eeee 8bbb 8ggg;\	.	.
*	*	*Xtuplet	*	*
!	!	!LO:TX:b:i:t=accelerando	!	!
12ff#XL 12f#X\	.	12ffff#XL 12fff#X\	.	.
12gg 12g\	.	12gggg 12ggg\	.	.
12eeJ 12e\	.	12eeeeJ 12eee\	.	.
12dd#XL 12d#X/	.	12dddd#XL 12ddd#X\	.	.
12ee 12e/	.	12eeee 12eee\	.	.
12bJ 12B/	.	12bbbJ 12bb\	.	.
12a#XL 12A#X/	.	12aaa#XL 12aa#X\	.	.
12b 12B/	.	12bbb 12bb\	.	fff
12gJ 12G/	.	12gggJ 12gg\	.	.
*	*	*X8va	*	*
*clefF4	*	*	*	*
=64	=64	=64	=64	=64
12f#XL 12F#X\	.	12fff#XL 12ff#X\	.	.
12g 12G\	.	12ggg 12gg\	.	.
12eJ 12E\	.	12eeeJ 12ee\	.	.
12d#XL 12D#X\	.	12ddd#XL 12dd#X\	.	.
12e 12E\	.	12eee 12ee\	.	.
12BJ 12BB\	.	12bbJ 12b\	.	.
12A#XL 12AA#X\	.	12aa#XL 12a#X\	.	.
12B 12BB\	.	12bb 12b\	.	.
12GJ 12GG\	.	12ggJ 12g\	.	.
12F#XL 12FF#X/	.	12ff#XL 12f#X\	.	.
12G 12GG/	.	12gg 12g\	.	.
12EJ 12EE/	.	12eeJ 12e\	.	.
=65	=65	=65	=65	=65
12D#XL 12DD#X/	.	12dd#XL 12d#X/	.	.
!	!	!LO:TX:b:i:t=ritardando	!	!
12E 12EE/	.	12ee 12e/	.	.
12BBJ 12BBB/	.	12bJ 12B/	.	.
12AA#XL 12AAA#X/	.	12a#XL 12A#X/	.	.
12BB 12BBB/	.	12b 12B/	.	.
12GGJ 12GGG/	.	12gJ 12G/	.	.
12FF#XL 12FFF#X/	.	12f#XL 12F#X/	.	.
12GG 12GGG/	.	12g 12G/	.	.
12EEJ 12EEE/	.	12eJ 12E/	.	.
4DDn 4DDDn^/	.	4dn 4B 4F#X 4D^>/	.	.
*	*	*clefF4	*	*
!!LO:LB:g=original
=66	=66	=66	=66	=66
4GG 4GGG/	.	[4c#X [4B [4E#X [4C#X\	.	sfz
!	!	!	!	!LO:DY:b=2:rj
12AAL 12AAA'/	.	8c#] 8B] 8E#] 8C#\]	.	mf
12BB 12BBB'/	.	.	.	.
.	.	8r	.	.
12GGJ 12GGG'/	.	.	.	.
4r	.	4r	.	.
4DD 4DDD/	.	4d 4B 4F#X 4D\	.	p
=67	=67	=67	=67	=67
4GG 4GGG/	.	[4cn [4B-X [4En [4Cn\	.	.
!	!	!	!	!LO:DY:b=2
12AAL 12AAA'/	.	8c] 8B-] 8E] 8C\]	.	pp
12BBn 12BBBn'/	.	.	.	.
.	.	8r	.	.
12GGJ 12GGG'/	.	.	.	.
4r	.	4r	.	.
[4FF#X [4FFF#X/	.	[4B- [4D#X [4BB\	.	sfz
=68	=68	=68	=68	=68
8FF#] 8FFF#/]	.	8B-] 8D#] 8BB\]	.	p
8r	.	8r	.	.
4EE 4EEE/	.	4E\	.	ppp
4DDn 4DDDn/	.	4Dn\	.	.
4CCn 4CCCn/	.	4Cn/	.	.
*	*	*clefG2	*	*
!!LO:PB:g=original
=69||	=69||	=69||	=69||	=69||
*k[f#c#g#d#a#]	*	*k[f#c#g#d#a#]	*	*
*^	*	*^	*	*
*ped	*	*	*	*	*	*
!!LO:TX:a:i:t=Tempo I.
!LO:TX:b:i:t=con 8	!	!	!LO:TX:b:i:t=m.d.	!	!	!LO:DY:a=2
4BB^^/	4BBB 4BBBByy\	.	1rdd	4BB<^^/	.	pp
(24BBB/LL	4ryy	.	.	2.ryy	.	.
24FF#/	.	3	.	.	.	.
24GG#/	.	.	.	.	.	.
24D#/	.	.	.	.	.	.
24GG#/	.	.	.	.	.	.
24FF#/JJ)	.	.	.	.	.	.
(24BBB/LL	2ryy	.	.	.	.	.
24FF#/	.	.	.	.	.	.
24GG#/	.	.	.	.	.	.
24D#/	.	1	.	.	.	.
24F#/	.	3	.	.	.	.
24G#/JJ	.	.	.	.	.	.
24d#\LL	.	1	.	.	.	.
24G#\	.	2	.	.	.	.
24F#\	.	3	.	.	.	.
24D#\	.	1	.	.	.	.
24GG#\	.	.	.	.	.	.
24FF#\JJ)	.	.	.	.	.	.
*v	*v	*	*v	*v	*	*
=70	=70	=70	=70	=70
(24BBB/LL	.	4r	.	.
24FF#/	.	.	.	.
24GG#/	.	.	.	.
24D#/	.	.	.	.
24F#/	.	.	.	.
24G#/JJ	.	.	.	.
24d#\LL	.	(4b^\	3	mf
24G#\	.	.	.	.
24F#\	.	.	.	.
24D#\	.	.	.	.
24GG#\	.	.	.	.
24FF#\JJ)	.	.	.	.
(24BBB/LL	.	(12cc#\L)	.	.
24FF#/	.	.	.	.
24GG#/	.	12dd#\	.	.
24D#/	.	.	.	.
24F#/	.	12b\J)	.	.
24G#/JJ	.	.	.	.
24d#\LL	.	8d#'/L	1	.
24G#\	.	.	.	.
24F#\	.	.	.	.
24D#\	.	8f#'/J	.	.
24GG#\	.	.	.	.
24FF#\JJ)	.	.	.	.
!!LO:LB:g=original
=71	=71	=71	=71	=71
(24BBB/LL	.	(4.g#/	3	.
24FF#/	.	.	.	.
24GG#/	.	.	.	.
24D#/	.	.	.	.
24F#/	.	.	.	.
24G#/JJ	.	.	.	.
24d#\LL	.	.	.	.
24G#\	.	.	.	.
24F#\	.	.	.	.
24D#\	.	[8a#/)	.	.
24GG#\	.	.	.	.
24FF#\JJ)	.	.	.	.
(24BBB/LL	.	8a#/L]	.	.
24FF#/	.	.	.	.
24GG#/	.	.	.	.
24D#/	.	(8b/J	1	.
24F#/	.	.	.	.
24G#/JJ	.	.	.	.
24d#\LL	.	12cc#\L	.	.
24G#\	.	.	.	.
24F#\	.	12dd#\	.	.
24D#\	.	.	.	.
24GG#\	.	12ff#\J)	4	.
24FF#\JJ)	.	.	.	.
=72	=72	=72	=72	=72
(24BBB/LL	5	(8aa#\L	3	>
24FF#/	3	.	.	.
24GGn/	2	.	.	.
24Dn/	1	8ee#X\J)	.	]
24F#/	3	.	.	.
24Gn/JJ	.	.	.	.
24dn\LL	.	4r	.	.
24G\	.	.	.	.
24F#\	.	.	.	.
24D\	.	.	.	.
24GG\	.	.	.	.
24FF#\JJ)	.	.	.	.
(24BBB/LL	.	(8a#/L	.	>
24FF#/	.	.	.	.
24GG/	.	.	.	.
24D/	.	8e#X/J)	.	]
24F#/	.	.	.	.
24G/JJ	.	.	.	.
24d\LL	.	4r	.	.
24G\	.	.	.	.
24F#\	.	.	.	.
24D\	.	.	.	.
24GG\	.	.	.	.
24FF#\JJ)	.	.	.	.
*	*	*clefF4	*	*
!!LO:LB:g=original
=73	=73	=73	=73	=73
!	!	!LO:TX:a:rj:i:t=sopra	!	!
(24BBB/LL	.	4A#^\	4	f
24FF#/	.	.	.	.
24GGn/	.	.	.	.
24Dn/	.	.	.	.
24F#/	.	.	.	.
24Gn/JJ	.	.	.	.
24d#\LL	.	4E#X^\	2	.
24G\	.	.	.	.
24F#\	.	.	.	.
24D\	.	.	.	.
24GG\	.	.	.	.
24FF#\JJ)	.	.	.	.
!	!	!LO:TR:acc=#	!	!
(24BBB/LL	.	2C#TT/	23	.
24FF#/	.	.	.	.
24GG/	.	.	.	.
24D/	.	.	.	.
24F#/	.	.	.	.
24G/JJ	.	.	.	.
24d#\LL	.	.	.	.
24G\	.	.	.	.
24F#\	.	.	.	.
24D\	.	.	.	.
24GG\	.	.	.	.
24FF#\JJ)	.	.	.	.
*	*	*clefG2	*	*
=74	=74	=74	=74	=74
(24BBB/LL	5	4r	.	.
24FF#/	3	.	.	.
24GG#X/	2	.	.	.
24D#X/	1	.	.	.
24F#/	3	.	.	.
24G#X/JJ	.	.	.	.
24d#\LL	.	(4b^\	3	.
24G#\	.	.	.	.
24F#\	.	.	.	.
24D#\	.	.	.	.
24GG#\	.	.	.	.
24FF#\JJ)	.	.	.	.
(24BBB/LL	.	12cc#'\L)	.	.
24FF#/	.	.	.	.
24GG#/	.	12dd#'\	.	.
24D#/	.	.	.	.
24F#/	.	12b'\J	.	.
24G#/JJ	.	.	.	.
24d#\LL	.	8d#'/L	1	<
24G#\	.	.	.	.
24F#\	.	.	.	.
24D#\	.	8f#'/J	.	[
24GG#\	.	.	.	.
24FF#\JJ)	.	.	.	.
!!LO:LB:g=original
=75	=75	=75	=75	=75
(24BBB/LL	.	(4.g#/	3	>
24FF#/	.	.	.	.
24GG#/	.	.	.	.
24D#/	.	.	.	.
24F#/	.	.	.	.
24G#/JJ	.	.	.	]
24d#\LL	.	.	.	.
24G#\	.	.	.	.
24F#\	.	.	.	.
24D#\	.	8a#/)	4	.
24GG#\	.	.	.	.
24FF#\JJ)	.	.	.	.
(24BBB/LL	.	8r	.	.
24FF#/	.	.	.	.
24GG#/	.	.	.	.
24D#/	.	(8b\	1	<
24F#/	.	.	.	.
24G#/JJ	.	.	.	.
24d#\LL	.	12cc#\L	.	.
24G#\	.	.	.	.
24F#\	.	12dd#\	.	.
24D#\	.	.	.	.
24GG#\	.	12ff#\J)	5	[[
24FF#\JJ)	.	.	.	.
=76	=76	=76	=76	=76
!	!	!	!	!LO:DY:t=più %s
(24FF#\LL	5	(4.aan\	4	f
24C#\	3	.	.	.
24D#\	2	.	.	.
24E#X\	1	.	.	.
24F#\	2	.	.	.
24An\JJ)	1	.	.	.
(24FF#\LL	.	.	.	<
24C#\	.	.	.	.
24D#\	.	.	.	.
!	!	!LO:TUP:a:problem:klamra łukowa	!	!
24E#\	.	40gg#\LLL	.	.
.	.	40aa\	.	.
24F#\	.	.	.	.
.	.	40gg#\	.	.
.	.	40ff#\	.	.
24A\JJ)	.	.	.	.
.	.	40cc#\JJJ)	.	.
(24FF#\LL	.	8ccc#\	.	.
24C#\	.	.	.	.
24D#\	.	.	.	.
24E#\	.	8r	.	.
24F#\	.	.	.	.
24A\JJ)	.	.	.	[
(24FF#\LL	.	8ddd#: 8ff#: 8b#X^^:\	.	.
24C#\	.	.	.	.
24D#\	.	.	.	.
24E#\	.	8ryy	.	.
24F#\	.	.	.	.
24A\JJ)	.	.	.	.
!!LO:LB:g=original
=77	=77	=77	=77	=77
(24FF#\LL	.	(4.an/	4	.
24C#\	.	.	.	.
24D#\	.	.	.	.
24E#X\	.	.	.	<
24F#\	.	.	.	.
24An\JJ)	.	.	.	.
(24FF#\LL	.	.	.	.
24C#\	.	.	.	.
24D#\	.	.	.	.
24E#\	.	40g#/LLL	.	.
.	.	40an/	.	.
24F#\	.	.	.	.
.	.	40g#/	.	.
.	.	40f#/	.	.
24A\JJ)	.	.	.	.
.	.	40c#/JJJ)	.	[
(24FF#\LL	.	8cc#\	.	.
24C#\	.	.	.	.
24D#\	.	.	.	.
24E#\	.	8r	.	.
24F#\	.	.	.	.
24A\JJ)	.	.	.	.
(24FF#\LL	.	8dd#: 8f#: 8B#X:/	.	>
24C#\	.	.	.	.
24D#\	.	.	.	.
24E#\	.	8r	.	.
24F#\	.	.	.	.
24A\JJ)	.	.	.	]]
=78	=78	=78	=78	=78
!	!	!	!	!LO:DY:t=più %s
(28CC#/LL	5	[4ee [4cc#\	1 3	f
28GG#/	3	.	.	.
28AA#/	2	.	.	.
28BB#X/	1	.	.	.
28C#/	3	.	.	.
28D#/	.	.	.	.
28E/JJ	.	.	.	.
!	!	!LO:TX:b:i:t=cresc. poco a poco:ext=s:problem:text with extention lines	!	!
28F#\LL	4	(12ee]L 12cc#\]	.	<
28G#\	.	.	.	.
28A#\	.	.	.	.
.	.	12ff# 12dd#\	.	.
28B#X\	1	.	.	.
28c#\	3	.	.	.
.	.	12gg#J 12ee\)	.	.
28d#\	.	.	.	.
28e\JJ)	.	.	.	.
(24FF#\LL	5	[4cc# [4an\	1 3	.
24C#\	3	.	.	.
24D#\	2	.	.	.
24An\	1	.	.	.
24c#\	3	.	.	.
24d#\JJ	.	.	.	.
!LO:SIC:v:s=24an\LL	!	!	!	!
24a#\LL	.	(12cc#]L 12a\]	.	.
24e\	.	.	.	.
24c#\	3	12dd# 12b\	.	.
24A\	.	.	.	.
24E\	.	12eeJ 12cc#\)	.	.
24C#\JJ)	3	.	.	.
!!LO:PB:g=original
=79	=79	=79	=79	=79
*	*	*^	*	*
(28CC#/LL	5	[4ee/	[>4cc#^\	1 3	.
28GG#/	3	.	.	.	.
28AA#/	.	.	.	.	.
28BB#X/	.	.	.	.	.
28C#/	3	.	.	.	[
28D#/	.	.	.	.	.
28E/JJ	.	.	.	.	.
*	*above	*	*	*below	*
28F#\LL	4	(12ee]L 12cc#/]	4b^\	1	.
28G#\	.	.	.	.	.
28A#\	.	.	.	.	.
.	.	12ff# 12dd#/	.	.	.
28B#X\	.	.	.	.	.
28c#\	3	.	.	.	.
.	.	12gg#J 12ee/)	.	.	.
28d#\	.	.	.	.	.
28e\JJ)	.	.	.	.	.
*	*	*	*	*above	*
(24FF#\LL	5	[4cc#/	[>4an^\	1 3	.
24C#\	.	.	.	.	.
24D#\	.	.	.	.	.
24An\	1	.	.	.	.
24c#\	3	.	.	.	.
24d#\JJ	.	.	.	.	.
*	*	*	*	*below	*
24an\LL	.	(12cc#]L 12a/]	4g#^\	1	.
24e\	.	.	.	.	.
24c#\	3	12dd# 12b/	.	.	.
24A\	1	.	.	.	.
24E\	.	12eeJ 12cc#/)	.	.	.
24C#\JJ)	3	.	.	.	.
!!LO:LB:g=original
=80	=80	=80	=80	=80	=80
8DD#L 8DDD#/	.	(4gg#::/	4cc#:: 4f#::\	.	ff
8D#J 8DD#/	.	.	.	.	.
!	!	!LO:SIC:v:s=8aan/)	!	!	!
24r	.	8aa#/)	12an^\L	.	.
*	*below	*	*	*	*
(24g#\LL	1	.	.	.	.
*	*	*	*	*above	*
24c#\	2	.	12b#X^\	2	.
24An\J	3	8rccc	.	.	.
12D#\J)	5	.	12cc#^\J	3	.
(8FF#L 8FFF#/	.	(4bb#X::/	4ee:: 4a::\	.	.
8F#J 8FF#/)	.	.	.	.	.
24r	.	8ccc#/)	12cc#^\L	.	.
(24b#X\LL	.	.	.	.	.
24e\	.	.	12dd#^\	2	.
24c#\J	.	8rccc	.	.	.
12F#\J)	.	.	12ee^\J	3	.
=81	=81	=81	=81	=81	=81
(8AAnL 8AAAn/	.	(4ddd#::/	4gg#:: 4cc#::\	.	.
8AnJ 8AA/)	.	.	.	.	.
24r	.	8eee/)	12ee^\L	.	.
(24dd#\LL	.	.	.	.	.
24g#\	.	.	12ff##X^\	2	.
24e\J	.	8rccc	.	.	.
12A\J)	.	.	12gg#^\J	3	.
8AA#XL 8AAA#X/	.	(4ggg# 4eee 4ccc# 4gg#\	2ryy	.	>
8c#J 8C#^/	.	.	.	.	.
!	!	!LO:N:n=2:acc=n#	!	!	!
12d#L 12D#^\	.	8fff#L 8ff#X\	.	.	.
12e 12E^\	.	.	.	.	.
.	.	8eeeJ 8ee\)	.	.	]
12c#J 12C#^\	.	.	.	.	.
!!LO:LB:g=original
=82	=82	=82	=82	=82	=82
!LO:TX:t=P:problem:mixed beam	!	!	!	!	!
12.AAnL 12.AAAn/	.	8eee 8cccn 8ff# 8ee\	4ryy	.	.
24e>K 24cn> 24An>\	.	8ryy	.	.	.
(12G#J (12GG#/	.	.	.	.	.
*	*	*tuplet	*	*	*
4F# 4FF#/))	.	12b/L	4e 4cny\	.	.
.	.	12ccn/	.	.	.
.	.	12an/J	.	.	.
8AA#XL 8AAA#X/	.	(4ggg# 4eee 4ccc#X 4gg#\	2ryy	.	>
8c#yJ 8C#^>/	.	.	.	.	.
12d#L 12D#^\	.	8fff#L 8ff#\	.	.	.
12e 12E^\	.	.	.	.	]]
.	.	8eeeJ 8ee\)	.	.	.
12c#J 12C#^\	.	.	.	.	.
*	*	*v	*v	*	*
=83	=83	=83	=83	=83
*	*	*X8va	*	*
*	*	*^	*	*
!LO:TX:t=P:problem:mixed beam	!	!	!	!	!
12.AAnL 12.AAAn/	.	8eee 8cccn 8ff# 8ee\	4ryy	.	.
24e>K 24cn> 24An>\	.	8ryy	.	.	.
(12G#J (12GG#/	.	.	.	.	.
4F# 4FF#/))	.	12b/L	4e 4cny\	.	.
.	.	12ccn/	.	.	.
.	.	12an/J	.	.	.
8AA#XL 8AAA#X/	.	(4ggg# 4eee 4ccc#X 4gg#\	2ryy	.	>
8c#yJ 8C#^>/	.	.	.	.	.
12d#L 12D#^\	.	8fff#L 8ff#\	.	.	.
12e 12E^\	.	.	.	.	.
.	.	8eeeJ 8ee\)	.	.	]
12c#J 12C#^\	.	.	.	.	.
*	*	*v	*v	*	*
=84	=84	=84	=84	=84
*	*	*8va	*	*
8BBL 8BBB\	.	4bbb 4ggg# 4eee 4bb\	.	>
8eJ 8E\	.	.	.	.
12f#L 12F#\	.	8aaanL 8aan\	.	.
12g# 12G#\	.	.	.	.
.	.	8ggg#J 8gg#\	.	]
12eJ 12E\	.	.	.	.
8CnL 8CCn\	.	(>4gggn 4cccn 4bb-X 4ggn\	.	>
8gnJ 8Gn\	.	.	.	.
12anL 12An\	.	8fff#XL 8ff#X/	.	.
12b-X 12B-X\	.	.	.	.
.	.	8eeeJ 8ee/)	.	]
12gJ 12G\	.	.	.	.
!!LO:LB:g=original
=85	=85	=85	=85	=85
8CnL 8CCn\	.	(4gggn 4cccn 4bb-X 4ggn\	.	>
8gnJ 8Gn\	.	.	.	.
12anL 12An\	.	8fff#XL 8ff#X\	.	.
12b-X 12B-X\	.	.	.	.
.	.	8eeeJ 8ee\)	.	]
12gJ 12G\	.	.	.	.
8CL 8CC\	.	(4ggg 4ccc 4bb- 4gg\	.	>
8gJ 8G\	.	.	.	.
12aL 12A\	.	8fff#L 8ff#\	.	.
12b- 12B-\	.	.	.	.
.	.	8eeeJ 8ee\)	.	]
12gJ 12\	.	.	.	.
=86	=86	=86	=86	=86
*	*	*^	*	*
!LO:TX:t=P:problem:mixed beam	!	!	!	!	!
12.C#XL 12.CC#X/	.	8eeee 8cccc#X 8ggg#X 8eee\	4ryy	.	.
*	*	*X8va	*	*	*
N[[24g#>K N[[24e>\	.	8ryy	.	.	.
(12d#J 12D#/	.	.	.	.	.
*	*	*Xtuplet	*	*	*
12c#L 12C#\	.	12dd#/L	4g#N]] 4e\N]]	.	.
12B 12BB\	.	12ee/	.	.	.
12AnJ 12AAn\)	.	12cc#/J	.	.	.
*	*	*8va	*	*	*
8CnL 8CCn\	.	(4gggn 4cccn 4bb-X 4ggn\	2ryy	.	>
8gnJ 8Gn^\	.	.	.	.	.
12anL 12An^\	.	8fff#L 8ff#/	.	.	.
12b-X 12B-X^\	.	.	.	.	]
.	.	8eeeJ 8ee/)	.	.	.
12gJ 12G^\	.	.	.	.	.
=87	=87	=87	=87	=87	=87
!LO:TX:t=P:problem:mixed beam	!	!	!	!	!
12.C#XL 12.CC#X/	.	8eeee 8cccc#X 8ggg#X 8eee\	4ryy	.	.
*	*	*X8va	*	*	*
N[[24g#>K N[[24e>\	.	8ryy	.	.	.
(12d#J 12D#/	.	.	.	.	.
12c#L 12C#\	.	12dd#/L	4g#N]] 4e\N]]	.	.
12B 12BB\	.	12ee/	.	.	.
12AnJ 12AAn\)	.	12cc#/J	.	.	.
*	*	*8va	*	*	*
8CnL 8CCn\	.	(4gggn 4cccn 4bb-X 4ggn\	2ryy	.	>
8gnJ 8Gn^\	.	.	.	.	.
12anL 12An^\	.	8fff#L 8ff#/	.	.	.
12b-X 12B-X^\	.	.	.	.	.
.	.	8eeeJ 8ee/)	.	.	.]
12gJ 12G^\	.	.	.	.	.
*	*	*v	*v	*	*
!!LO:LB:g=original
=88	=88	=88	=88	=88
*	*	*^	*	*
!LO:TX:t=P:problem:mixed beam	!	!	!	!	!
12.CC#L 12.CCC#/	.	8eeee 8cccc#X 8ggg#X 8eee\	4ryy	.	]
*	*	*X8va	*	*	*
N[24g#>K N[24e>\	.	8ryy	.	.	.
12d#J 12D#\	.	.	.	.	.
*	*	*Xtuplet	*	*	*
12c#L 12C#\	.	12dd#/L	4g#N] 4e\N]	.	.
12B 12BB\	.	12ee/	.	.	.
12AnJ 12AAn\	.	12cc#/J	.	.	.
*8ba	*	*	*	*	*
12CC# 12CCC#\	.	12ryy	2ryy	.	.
*X8ba	*	*	*	*	*
!	!	!LO:TX:b:i:t=abassando poco a poco:dur=3q:ext=s:problem:text with extention lines	!	!	!
12ryy	.	24rA<	.	.	.
.	.	[[24G#< [[>24E</	.	.	.
12D# 12DD#\	.	12ryy	.	.	.
.	.	.	.	.	.
12C#L 12CC#\	.	12d#<L 12G#<]] 12E</]]	.	.	.
12BB 12BBB\	.	12e</	.	.	.
12AAnJ 12AAAn\	.	12c#</J	.	.	.
*	*	*v	*v	*	*
=89	=89	=89	=89	=89
*8ba	*	*	*	*
12CC# 12CCC#\	.	12ryy	.	.
*X8ba	*	*	*	*
12ryy	.	24rA<	.	.
.	.	[[24G#< [[24E</	.	.
12D# 12DD#\	.	12ryy	.	.
.	.	.	.	.
12C#L 12CC#\	.	12d#<L 12G#<]] 12E</]]	.	.
12BB 12BBB\	.	12e</	.	.
12AAnJ 12AAAn\	.	12c#</J	.	.
*8ba	*	*	*	*
12CC# 12CCC#\	.	12ryy	.	.
*X8ba	*	*	*	*
12ryy	.	24rA<	.	.
.	.	(>[[24G#< [[24E</	.	.
12D# 12DD#\	.	12ryy	.	.
12C#L 12CC#\	.	12d#<L 12G#<]] 12E</]]	.	.
12BB 12BBB\	.	12e</	.	.
12AAJ 12AAA;<\)	.	12c#<;/J)	.	.
!!LO:PB:g=original
=90||	=90||	=90||	=90||	=90||
*k[f#]	*	*k[f#]	*	*
*	*	*^	*	*^
*8ba	*	*	*	*	*	*
!!LO:TX:a:i:t=poco più Lento
[2BBB [2EEE/	.	8r	2ryy	.	f	.
.	.	(>8GL 8E/	.	1 3	.	.
.	.	8A 8F#/	.	.	<	.
.	.	8BJ 8G/	.	.	.	.
8BBB] 8EEE/]	.	8c/	[2A\	1 2	.	.
*X8ba	*	*	*	*	*	*
!	!	!	!	!	!	!LO:HP:b=2
(>8GG/L	3	4g/	.	.	[	<
8AA/	.	.	.	.	.	.
8BB/J	.	8f#/	.	.	>	.
=91	=91	=91	=91	=91	=91	=91
8C/	4	4e/	2A\]	.	.	[
!	!	!	!	!	!	!LO:HP:b=2
4G\	.	.	.	.	.	>
.	.	4d#X/)	.	.	]	.
8F#\)	.	.	.	.	.	]
!	!	!	!	!	!LO:HP:a	!
2G#X 2D\	.	(8b/	2e\	1 3	<	.
.	.	.	.	.	.	.
.	.	4cc/	.	.	[	.
!	!	!	!	!	!LO:HP:a	!
.	.	.	.	.	>	.
.	.	8b/	.	.	]	.
=92	=92	=92	=92	=92	=92	=92
(12C\L	5	2.een/)	(>8e#X\	.	<	.
12A\	2	.	.	.	.	.
.	.	.	4f#X\	.	.	.
12e\J)	.	.	.	.	.	.
(12BB\L	5	.	.	.	.	.
12E\	3	.	.	.	[	.
.	.	.	[>8g#X\)	.	.	.
12d\J)	.	.	.	.	.	.
(12AA\L	5	.	8g#\L]	.	.	.
12E\	2	.	.	.	.	.
.	.	.	&(>8a\J	1	.	.
12c\J)	.	.	.	.	.	.
*	*	*	*tuplet	*	*	*
4FFF#/	.	4rccc	12b\L	2	<	.
.	.	.	12cc\	1	.	.
.	.	.	12ee\J	.	.	.
=93	=93	=93	=93	=93	=93	=93
(8G#X\L	5	8bb\L	2ryy	5	[	.
!	!	!	!	!	!	!LO:HP:b=2
8A\J	4	8aa\	.	.	>	<
12B\L	.	8ee\	.	.	.	.
12c\	.	.	.	.	.	.
.	.	8cc\J&)	.	.	]	.
12e\J	1	.	.	.	.	[
!	!	!	!	!	!	!LO:HP:b=2
8b\L	2	8r	8ryy	.	.	>
8a\	1	(8ffn/L	4.ee\	1 2	<	.
8e\	2	8ff#X/	.	.	.	.
8c\J)	4	8gg/J	.	.	[	]
*clefG2	*	*	*	*	*	*
*	*	*	*	*	*v	*v
!!LO:LB:g=original
=94	=94	=94	=94	=94	=94
*^	*	*	*	*	*^
8r	8ryy	.	8eeeL 8ccc\	2ryy	3 5	>	.
(8fn/L	4.e\	4 5	8ddd#X 8bb\	.	.	.	.
8f#X/	.	.	8ccc 8aa\	.	.	.	.
8g/J	.	.	8ddd#J 8bb\)	.	.	]	.
8eeL 8cc\	2ryy	1 3	8r	8ryy	.	.	.
!	!	!	!	!	!	!	!LO:HP:b=2
.	.	.	.	.	.	.	>
8dd#X 8b\	.	.	(8ffn/L	4.ee\	1 2	.	.
8cc 8a\	.	.	8ff#X/	.	.	<	.
8dd#J 8b\)	.	.	8gg/J	.	.	.	]
*	*	*	*v	*v	*	*	*
=95	=95	=95	=95	=95	=95	=95
*	*	*	*8va	*	*	*
8r	8ryy	.	8gggL 8eee\	3 5	[[	.
!	!	!	!	!	!	!LO:HP:b=2
(8fn/L	4.e\	.	8fff#X 8ddd#X\	.	.	<
.	.	.	.	.	>	.
8f#X/	.	.	8ddd#X 8bb\	1 3	.	.
8g/J	.	.	8eeeJ 8ccc\)	.	]	[
!	!	!	!LO:TUP:a	!	!	!
8ggL 8ee\	2ryy	1 3	(12cccc\L	4	]	.
!	!	!	!	!	!	!LO:HP:b=2
.	.	.	.	.	.	>
.	.	.	12bbb\	.	>	.
8ff# 8dd#X\	.	.	.	.	.	.
.	.	.	12aaa#X\J	.	.	.
8dd#X 8b\	.	.	12ggg\L	1	.	.
.	.	.	.	.	.	]
.	.	.	12fff#\	2	.	.
8eeJ 8cc\)	.	.	.	.	.	.
.	.	.	12eee\J)	1	]	.
*	*	*	*X8va	*	*	*
*v	*v	*	*	*	*v	*v
=96	=96	=96	=96	=96
*	*	*^	*	*
*	*	*	*^	*	*
!	!	!	!	!	!	!LO:HP:b
2r	.	(16bb\LL	2ryy	2ryy	4	>
.	.	16aa#X\	.	.	.	.
.	.	16gg\	.	.	.	.
.	.	16ee\JJ	.	.	.	.
.	.	16b/LL	.	.	4	.
.	.	16a#X/	.	.	.	.
.	.	16g/	.	.	.	.
.	.	16e/JJ)	.	.	.	]
*clefF4	*	*clefF4	*	*	*	*
!	!	!	!	!	!	!LO:DY:t=più %s
(4D 4DD/	.	8r	8ryy	4.ryy	.	p
.	.	(8F#/L	4.E\	.	.	.
8CL 8CC/	.	8G/	.	.	.	.
8AA#XJ 8AAA#X/)	.	8e/J)	.	8c#X 8F#\	.	.
*	*	*v	*v	*v	*	*
!!LO:LB:g=original
*	*	*clefG2	*	*
=97	=97	=97	=97	=97
2rD	.	(<16b/LL	4	.
.	.	16a#X/	.	.
.	.	16g/	.	.
.	.	16e/JJ	.	.
.	.	16B</LL	4	.
!LO:TX:b:i:t=con 8-:dur=17s:ext=cd:problem:text with extention lines	!	!	!	!
.	.	16A#X</	.	.
.	.	16G</	.	.
.	.	16E</JJ)	.	.
4DD 4DDDyy\	.	8rF<	.	.
.	.	(>8FF#<L [<8EE</	1 2	.
8CC 8CCCyy\L	.	8GG< 8EE</]	.	.
8AAA#X 8AAAA#yy\J	.	8E<J 8C#X< 8FF#</)	2 4 5	.
!!LO:LB:g=original
=98	=98	=98	=98	=98
*	*	*^	*	*
*ped	*	*	*	*	*
!	!	!	!	!	!LO:DY:b=2:rj
(<4BBB 4BBBByy\	.	8rA<	2.ryy	.	p
.	.	(>8B< 8G< 8E</	.	2 3 5	.
8AAA 8AAAAyy\)	.	8g 8e 8c^^/)	.	1 3 5	p
8r	.	8r	.	.	.
*Xped	*	*	*	*	*
8r	.	8r	.	.	.
8A#X 8C#X'\	.	8ee 8f# 8e'/	.	.	.
([4An [4Cn\	.	(>[4fn/	[4e\	1 2	.
=99	=99	=99	=99	=99	=99
4A] 4C\]	.	8f/L]	4e\]	.	.
.	.	8f#X/J	.	.	.
4G 4BB\)	.	4b 4d#X/)	2.ryy	2 5	.
8r	.	8r	.	.	.
(8G 8C\	.	(>8e 8c/	.	1 3	.
4E 4AA/)	.	4g 4c#X/)	.	.	.
*	*	*v	*v	*	*
=100	=100	=100	=100	=100
4r	.	4r	.	.
4C 4FFn^^/	.	4e 4A-X^^/	2 5	.
*	*	*X8va	*	*
2AAn 2BBB 2FFFn/	.	2B 2Fn/	1 3	.
=101	=101	=101	=101	=101
*ped	*	*	*	*
*8ba	*	*	*	*
2AAAA/	.	2r	.	pp
*X8ba	*	*	*	*
*clefG2	*	*8va	*	*
!	!	!	!	!LO:DY:rj
4aa#X: 4cc#X: 4f#X:\	.	4ggggn: 4cccc: 4aaa#X: 4eee:\	.	ppp
*	*	*X8va	*	*
4r;	.	4r;	.	.
*Xped	*	*	*	*
*clefF4	*	*	*	*
=102	=102	=102	=102	=102
*	*	*^	*	*^
!	!	!LO:TX:b:i:t=doloroso	!	!	!	!
!	!	!LO:TX:a:i:t=con forza	!	!	!LO:DY:b	!
2BBB/	.	8r	2ryy	.	f	.
.	.	(>8GL 8E~>/	.	.	<	.
.	.	8A 8F#X~>/	.	.	.	.
.	.	8BJ 8G~>/	.	.	[	.
8r	.	8c/	[2A\	.	.	.
!	!	!	!	!	!	!LO:HP:b=2
8GG/L	3	4g/	.	.	.	<
.	.	.	.	.	>	.
8AA/	.	.	.	.	.	.
8BB/J	.	8f#X/	.	.	]]	[
*	*	*	*	*	*v	*v
!!LO:LB:g=original
=103	=103	=103	=103	=103	=103
!	!	!	!	!	!LO:HP:b=2
(8C/	4	4e/	2A\]	.	>
4G\	1	.	.	.	.
.	.	4d#X/)	.	.	.
8F#\)	.	.	.	.	]
2Fn 2BB\	1 5	(8dn/	2A\	1 3	<
.	.	4e/	.	.	[>
.	.	8d/)	.	.	]
=104	=104	=104	=104	=104	=104
*^	*	*	*	*	*^
!	!	!	!	!	!	!LO:HP:a	!LO:HP:b=2
(8D/	2BB\	2 4	(>4fn 4A/	2ryy	1 5	>	<
4E/	.	.	.	.	.	]]	[
!	!	!	!	!	!	!	!LO:HP:b=2
.	.	.	4e 4G#X/)	.	.	.	>
[8D/)	.	.	.	.	.	.	]
!	!	!	!	!	!	!LO:HP:a	!
4D/]	4BB-X\	4	(8e/	2Gn\	.	<	.
!	!	!	!	!	!	!LO:HP:a	!
.	.	.	4f/	.	.	[	.
!	!	!	!	!	!	!LO:HP:a	!
4C#X/	4AA\	3 5	.	.	.	>	.
.	.	.	8e/)	.	.	]	.
*v	*v	*	*	*	*	*v	*v
=105	=105	=105	=105	=105	=105
2G 2GG\	.	8e/	&(>4b-X [4c#X 4B-X\	.	>
.	.	4fn/	.	.	.
.	.	.	4a 4c#] 4A\	.	]
.	.	8e/&)	.	.	.
!	!	!	!	!	!LO:HP:b=2
(8Fn 8FFn/	5	2bn 2a 2d#X 2Bn/	2ryy	.	f <
.	.	.	.	.	.
!	!	!	!	!	!LO:HP:b=2
4G 4GG/	4	.	.	.	[>]
.	.	.	.	.	.
8F 8FF/)	5	.	.	.	.
=106	=106	=106	=106	=106	=106
!!LO:TX:a:i:t=poco a poco allarg.
!	!	!	!	!	!LO:HP:a=2
(8E 8EE/	5	2cc 2g 2e 2c/	8ryy	.	<
!	!	!	!	!	!LO:HP:a=2
4Fn 4FFn/	4	.	4ryy	.	[>
8E 8EE/)	.	.	8ryy	.	]
!	!	!	!	!	!LO:HP:a=2
(8D 8DD/	.	2dd 2cc 2f#X 2d/	8ryy	.	<
!	!	!	!	!	!LO:HP:a=2
4E 4EE/	.	.	4ryy	.	[>
8D 8DD/)	.	.	8ryy	.	]
=107	=107	=107	=107	=107	=107
!	!	!	!	!	!LO:HP:a=2
8C 8CC/	.	2ee 2cc 2g 2e/	8ryy	.	<
!	!	!	!	!	!LO:HP:a=2
4D 4DD/	.	.	4ryy	.	[>
8C 8CC/	.	.	8ryy	.	]
*8ba	*	*	*	*	*
!	!	!	!	!	!LO:HP:a=2
8CC 8CCC/	.	2eee 2ccc 2gg 2ee\	8ryy	.	pp <
!	!	!	!	!	!LO:HP:a=2
4DD 4DDD/	.	.	4ryy	.	[>
8CC 8CCC/	.	.	8ryy	.	]
*X8ba	*	*	*	*	*
*	*	*v	*v	*	*
!!LO:LB:g=original
=108||	=108||	=108||	=108||	=108||
*k[f#c#g#d#a#]	*	*k[f#c#g#d#a#]	*	*
!!LO:TX:a:i:t=Tempo I.
(24BBB/LL	.	4r	.	p
24FF#/	3	.	.	.
24GG#/	.	.	.	.
24D#/	1	.	.	.
24F#/	3	.	.	.
24G#/JJ	.	.	.	.
!	!	!	!	!LO:DY:rj
24d#\LL	.	(4b^^\	3	mf
24G#\	.	.	.	.
24F#\	.	.	.	.
24D#\	.	.	.	.
24GG#\	.	.	.	.
24FF#\JJ)	.	.	.	.
!	!	!LO:TUP:a	!	!
(24BBB/LL	.	12cc#'\L)	.	.
24FF#/	.	.	.	.
24GG#/	.	12dd#'\	.	.
24D#/	.	.	.	.
24F#/	.	12b'\J	.	.
24G#/JJ	.	.	.	.
24d#\LL	.	8d#'/L	1	.
24G#\	.	.	.	.
24F#\	.	.	.	.
24D#\	.	8f#'/J	2	.
24GG#\	.	.	.	.
24FF#\JJ)	.	.	.	.
=109	=109	=109	=109	=109
(24BBB/LL	5	8gn/	3	sfz
24FF#/	3	.	.	.
24GGn/	2	.	.	.
24Dn/	1	(32eee\LLL	4	>
.	.	32dddn\	.	.
24F#/	3	.	.	.
.	.	32bb\	.	.
24Gn/JJ	.	.	.	.
.	.	32ggn\JJJ	.	.
!LO:SIC:v:s=24dn\LL	!	!	!	!
24d#\LL	.	32ee\LLL	4	.
.	.	32ddn\	.	.
24G\	.	.	.	.
.	.	32b\	.	.
24F#\	.	.	.	.
.	.	32gn\JJJ	.	.
24Dn\	.	32d#X/LLL	4	.
.	.	32c#X/	.	.
24GGn\	.	.	.	.
.	.	32A#X/	.	]
24FF#\JJ)	.	.	.	.
.	.	[32F#X/JJJ	.	.
!!LO:LB:g=original
=-	=-	=-	=-	=-
(24BBB/LL	.	2F#/])	.	.
24FF#/	.	.	.	.
24GGn/	.	.	.	.
24Dn/	.	.	.	.
24F#/	.	.	.	.
24Gn/JJ	.	.	.	.
24dn\LL	.	.	.	.
24G\	.	.	.	.
24F#\	.	.	.	.
24D\	.	.	.	.
24GG\	.	.	.	.
24FF#\JJ)	.	.	.	.
=110	=110	=110	=110	=110
(24BBB\LL	.	8gn/	.	sfz
24FF#\	.	.	.	.
24GGn\	.	.	.	.
24Dn\	.	(32eee\LLL	4	>
.	.	32dddn\	.	.
24F#\	.	.	.	.
.	.	32bb\	.	.
24Gn\JJ	.	.	.	.
.	.	32ggn\JJJ	.	.
!LO:SIC:v:s=24d\LL	!	!	!	!
24d#\LL	.	32ee\LLL	.	.
.	.	32ddn\	.	.
24G\	.	.	.	.
.	.	32b\	.	.
24F#\	.	.	.	.
.	.	32gn\JJJ	.	.
24Dn\	.	32d#X/LLL	.	.
.	.	32c#X/	.	.
24GGn\	.	.	.	.
.	.	32A#X/	.	]
24FF#\JJ)	.	.	.	.
.	.	[32F#X/JJJ	.	.
(24BBB/LL	.	2F#/])	.	.
24FF#/	.	.	.	.
24GG/	.	.	.	.
24D/	.	.	.	.
24F#/	.	.	.	.
24G/JJ	.	.	.	.
!LO:SIC:v:s=24d\LL	!	!	!	!
24d#\LL	.	.	.	.
24G\	.	.	.	.
24F#\	.	.	.	.
24D\	.	.	.	.
24GG\	.	.	.	.
24FF#\JJ)	.	.	.	.
!!LO:PB:g=original
=111	=111	=111	=111	=111
(24BBB/LL	.	4r	.	.
24FF#/	.	.	.	.
24GG#X/	.	.	.	.
24D#X/	.	.	.	.
24F#/	.	.	.	.
24G#X/JJ	.	.	.	.
24d#\LL	.	(4b\	3	.
24G#\	.	.	.	.
24F#\	.	.	.	.
24D#\	.	.	.	.
24GG#\	.	.	.	.
24FF#\JJ)	.	.	.	.
*	*	*Xtuplet	*	*
(24BBB/LL	.	12cc#\L)	.	.
24FF#/	.	.	.	.
24GG#/	.	12dd#'\	.	.
24D#/	.	.	.	.
24F#/	.	12b'\J	.	.
24G#/JJ	.	.	.	.
24d#\LL	.	8d#'/L	.	.
24G#\	.	.	.	.
24F#\	.	.	.	.
24D#\	.	8f#'/J	.	.
24GG#\	.	.	.	.
24FF#\JJ)	.	.	.	.
=112	=112	=112	=112	=112
(24BBB/LL	.	8ggn: 8ddn: 8b: 8e:\	.	.
24FF#/	.	.	.	.
24GGn/	.	.	.	.
24Dn/	.	(32eee\LLL	4	.
.	.	32dddn\	.	.
24F#/	.	.	.	.
.	.	32bb\	.	.
24Gn/JJ	.	.	.	.
.	.	32gg\JJJ	.	.
!LO:SIC:v:s=24d\LL	!	!	!	!
24d#\LL	.	32ee\LLL	4	.
.	.	32ddn\	.	.
24G\	.	.	.	.
.	.	32b\	.	.
24F#\	.	.	.	.
.	.	32g#\JJJ	.	.
24Dn\	.	32d#X/LLL	4	.
.	.	32c#X/	.	.
24GGn\	.	.	.	.
.	.	32A#X/	.	.
24FF#\JJ)	.	.	.	.
.	.	[32F#/JJJ)	.	.
!!LO:LB:g=original
=-	=-	=-	=-	=-
(24BBB/LL	.	2F#/]	.	.
24FF#/	.	.	.	.
24GGn/	.	.	.	.
24Dn/	.	.	.	.
24F#/	.	.	.	.
24Gn/JJ	.	.	.	.
24d#\LL	.	.	.	.
24G\	.	.	.	.
24F#\	.	.	.	.
24D\	.	.	.	.
24GG\	.	.	.	.
24FF#\JJ)	.	.	.	.
=113	=113	=113	=113	=113
(24BBB/LL	.	8ggn: 8ddn: 8b: 8e:\	.	.
24FF#/	.	.	.	.
24GGn/	.	.	.	.
24Dn/	.	(32eee\LLL	.	.
.	.	32dddn\	.	.
24F#/	.	.	.	.
.	.	32bb\	.	.
24Gn/JJ	.	.	.	.
.	.	32ggn\JJJ	.	.
24dn\LL	.	32ee\LLL	.	.
.	.	32ddn\	.	.
24G\	.	.	.	.
.	.	32b\	.	.
24F#\	.	.	.	.
.	.	32gn\JJJ	.	.
24D\	.	32d#X/LLL	.	.
.	.	32c#X/	.	.
24GG\	.	.	.	.
.	.	32A#X/	.	.
24FF#\JJ)	.	.	.	.
.	.	[32F#X/JJJ)	.	.
(24BBB/LL	.	2F#/]	.	.
24FF#/	.	.	.	.
24GG/	.	.	.	.
24D/	.	.	.	.
24F#/	.	.	.	.
24G/JJ	.	.	.	.
24d\LL	.	.	.	.
24G\	.	.	.	.
24F#\	.	.	.	.
24D\	.	.	.	.
24GG\	.	.	.	.
24FF#\JJ)	.	.	.	.
!!LO:LB:g=original
=114	=114	=114	=114	=114
(24BBB/LL	5	4r	.	pp
24FF#/	3	.	.	.
24GG#X/	2	.	.	.
24D#/	1	.	.	.
24F#/	3	.	.	.
24G#X/JJ	.	.	.	.
*	*	*X8va	*	*
!	!	!	!	!LO:DY:rj
24d#\LL	.	(4bb 4dd# 4b\	.	mf
24G#\	.	.	.	.
24F#\	.	.	.	.
24D#\	.	.	.	.
24GG#\	.	.	.	.
24FF#\JJ)	.	.	.	.
(24BBB/LL	.	4ccc# 4ee 4cc#\	.	.
24FF#/	.	.	.	.
24GG#/	.	.	.	.
24D#/	.	.	.	.
24F#/	.	.	.	.
24G#/JJ	.	.	.	.
24d#\LL	.	4ddd# 4ff# 4dd#\	.	.
24G#\	.	.	.	.
24F#\	.	.	.	.
24D#\	.	.	.	.
24GG#\	.	.	.	.
24FF#\JJ)	.	.	.	.
=115	=115	=115	=115	=115
(24BBB/LL	.	4fff# 4ddd# 4ff#\	.	.
24FF#/	.	.	.	.
24GG#/	.	.	.	.
24D#/	.	.	.	.
24F#/	.	.	.	.
24G#/JJ	.	.	.	.
*	*	*8va	*	*
24d#\LL	.	[4ffff#: [4dddd#: [4fff#:\	.	.
24G#\	.	.	.	.
24F#\	.	.	.	.
24D#\	.	.	.	.
24GG#\	.	.	.	.
24FF#\JJ)	.	.	.	.
!!LO:LB:g=original
=-	=-	=-	=-	=-
!	!	!LO:TX:t=P:problem:brak zakończenia ligatury 4ffff#]	!	!
(24BBB/LL	.	4ffff#] 4dddd#] 4fff#\])	.	.
24FF#/	.	.	.	.
24GG#/	.	.	.	.
24D#/	.	.	.	.
24F#/	.	.	.	.
24G#/JJ	.	.	.	.
24d#\LL	.	([4cccc# [4eee [4ccc#\	.	.
24G#\	.	.	.	.
24F#\	.	.	.	.
24D#\	.	.	.	.
24GG#\	.	.	.	.
24FF#\JJ)	.	.	.	.
=116	=116	=116	=116	=116
(24BBB/LL	.	4cccc#] 4eee] 4ccc#\]	.	.
24FF#/	.	.	.	.
24GG#/	.	.	.	.
24D#/	.	.	.	.
24F#/	.	.	.	.
24G#/JJ	.	.	.	.
24d#\LL	.	4bbb 4ddd# 4bb\	.	.
24G#\	.	.	.	.
24F#\	.	.	.	.
24D#\	.	.	.	.
24GG#\	.	.	.	.
24FF#\JJ)	.	.	.	.
(24BBB/LL	.	4ggg# 4bb 4gg#\	.	.
24FF#/	.	.	.	.
24GG#/	.	.	.	.
24D#/	.	.	.	.
24F#/	.	.	.	.
24G#/JJ	.	.	.	.
24d#\LL	.	[4fff# [4aa# [4ff#\)	.	.
24G#\	.	.	.	.
24F#\	.	.	.	.
24D#\	.	.	.	.
24GG#\	.	.	.	.
24FF#\JJ)	.	.	.	.
!!LO:LB:g=original
=117	=117	=117	=117	=117
(24BBB/LL	.	4fff#] 4aa#] 4ff#\]	.	.
24FF#/	.	.	.	.
24GG#/	.	.	.	.
24D#/	.	.	.	.
24F#/	.	.	.	.
24G#/JJ	.	.	.	.
*	*	*X8va	*	*
24d#\LL	.	(4ddd# 4dd#\	.	.
24G#\	.	.	.	.
24F#\	.	.	.	.
24D#\	.	.	.	.
24GG#\	.	.	.	.
24FF#\JJ)	.	.	.	.
*	*	*Xtuplet	*	*
(24BBB/LL	.	12ccc#L 12cc#\	.	.
24FF#/	.	.	.	.
24GG#/	.	12ddd# 12dd#\	.	.
24D#/	.	.	.	.
24F#/	.	12ccc#J 12cc#\	.	.
24G#/JJ	.	.	.	.
24d#\LL	.	8bbL 8b\)	.	.
24G#\	.	.	.	.
24F#\	.	.	.	.
24D#\	.	8ff#J 8f#'\	.	.
24GG#\	.	.	.	.
24FF#\JJ)	.	.	.	.
=118	=118	=118	=118	=118
*	*	*^	*	*
(24BBB/LL	.	4rdd	[>1gg# [1g#	.	.
24FF#/	.	.	.	.	.
24GG#/	.	.	.	.	.
24D#/	.	.	.	.	.
24F#/	.	.	.	.	.
24G#/JJ	.	.	.	.	.
24d#\LL	.	(4b/	.	3	.
24G#\	.	.	.	.	.
24F#\	.	.	.	.	.
24D#\	.	.	.	.	.
24GG#\	.	.	.	.	.
24FF#\JJ)	.	.	.	.	.
(24BBB/LL	.	12cc#/L)	.	.	.
24FF#/	.	.	.	.	.
24GG#/	.	12dd#'/	.	.	.
24D#/	.	.	.	.	.
24F#/	.	12b'/J	.	.	.
24G#/JJ	.	.	.	.	.
24d#\LL	.	8d#'/L	.	1	.
24G#\	.	.	.	.	.
24F#\	.	.	.	.	.
24D#\	.	8f#'/J	.	2	.
24GG#\	.	.	.	.	.
24FF#\JJ)	.	.	.	.	.
!!LO:LB:g=original
=119	=119	=119	=119	=119	=119
!	!	!	!	!	!LO:DY:a
(24BBB/LL	.	1gg#_ 1g#_<	4g#\	.	sfz
24FF#/	.	.	.	.	.
24GG#/	.	.	.	.	.
24D#/	.	.	.	.	.
24F#/	.	.	.	.	.
24G#/JJ	.	.	.	.	.
24d#\LL	.	.	4rb	.	.
24G#\	.	.	.	.	.
24F#\	.	.	.	.	.
24D#\	.	.	.	.	.
24GG#\	.	.	.	.	.
24FF#\JJ)	.	.	.	.	.
!	!	!LO:TX:b:i:t=rit.	!	!	!
(24BBB/LL	.	.	2rb	.	.
24FF#/	.	.	.	.	.
24GG#/	.	.	.	.	.
24D#/	.	.	.	.	.
24F#/	.	.	.	.	.
24G#/JJ	.	.	.	.	.
24d#\LL	.	.	.	.	.
24G#\	.	.	.	.	.
24F#\	.	.	.	.	.
24D#\	.	.	.	.	.
24GG#\	.	.	.	.	.
24FF#\JJ)	.	.	.	.	.
*	*	*v	*v	*	*
=12	=12	=120	=12	=120
*^	*	*^	*	*
!	!	!	!	!	!	!LO:DY:a=2
1BBB	4r	.	1gg#] 1g#]	2ryy	.	sfz
.	4GGG#'\	.	.	.	.	.
.	4r	.	.	4ryy	.	.
!	!	!	!	!	!	!LO:DY:a=2
.	4CCCn\;>	.	.	4ryy	.	sfz
*v	*v	*	*	*	*	*
*	*	*v	*v	*	*
*	*	*clefF4	*	*
=121	=121	=121	=121	=121
*8ba	*	*	*	*
1BBB 1BBBB	.	1d# 1B 1F# 1D#	.	pppp
*X8ba	*	*	*	*
==	==	==	==	==
*-	*-	*-	*-	*-
!!!system-decoration: {(g1)}
!!!RDF**kern: i = editorial accidental
!!!RDF**kern: > = above
!!!RDF**kern: < = below
!!!RDF**kern: N = linked
!!!RDF**dynam: > = "dim.", fontstyle= "italic"
!!!ENC: Andrzej Gręziak
!!!EED: Katarzyna Serwa
!!!END: 2023-10-13
!!!EEV: 2023-10-26
